liamjosephnolan/psm_src/include/traj.csv
__time,/model_pose/header/stamp,/model_pose/x/effort,/model_pose/x/position,/model_pose/x/velocity,/model_pose/y/effort,/model_pose/y/position,/model_pose/y/velocity,/model_pose/z/effort,/model_pose/z/position,/model_pose/z/velocity,/psm_joint_telemetry/header/stamp,/psm_joint_telemetry/insertion/effort,/psm_joint_telemetry/insertion/position,/psm_joint_telemetry/insertion/velocity,/psm_joint_telemetry/pitch/effort,/psm_joint_telemetry/pitch/position,/psm_joint_telemetry/pitch/velocity,/psm_joint_telemetry/roll/effort,/psm_joint_telemetry/roll/position,/psm_joint_telemetry/roll/velocity,/psm_joint_telemetry/servo1/effort,/psm_joint_telemetry/servo1/position,/psm_joint_telemetry/servo1/velocity,/psm_joint_telemetry/servo2/effort,/psm_joint_telemetry/servo2/position,/psm_joint_telemetry/servo2/velocity,/psm_joint_telemetry/servo3/effort,/psm_joint_telemetry/servo3/position,/psm_joint_telemetry/servo3/velocity,/psm_joint_telemetry/servo4/effort,/psm_joint_telemetry/servo4/position,/psm_joint_telemetry/servo4/velocity
1751971112.636929,,,,,,,,,,,324.992000000,88.349182129,0.000000000,100.000000000,2.409305096,-29.891996384,-150.000000000,7.127406597,-3.422999382,-100.000000000,60.273277283,0.000000000,0.000000000,166.558593750,0.000000000,0.000000000,106.572227478,0.000000000,0.000000000,135.448577881,0.000000000,0.000000000
1751971112.637003,1751971112.636902094,0.000000000,-0.013032405,0.000000000,0.000000000,-0.041717221,0.000000000,0.000000000,0.076798344,0.000000000,,,,,,,,,,,,,,,,,,,,,,
1751971112.638986,1751971112.638911486,0.000000000,-0.013032405,0.000000000,0.000000000,-0.041717221,0.000000000,0.000000000,0.076798344,0.000000000,,,,,,,,,,,,,,,,,,,,,,
1751971112.639801,,,,,,,,,,,324.994000000,88.349182129,0.000000000,100.000000000,2.409305096,-29.891996384,-150.000000000,7.127406597,-3.422999382,-100.000000000,60.278347015,0.000000000,0.000000000,166.565185547,0.000000000,0.000000000,106.558868408,0.000000000,0.000000000,135.472839355,0.000000000,0.000000000
1751971112.641006,1751971112.640918732,0.000000000,-0.013032405,0.000000000,0.000000000,-0.041717221,0.000000000,0.000000000,0.076798344,0.000000000,,,,,,,,,,,,,,,,,,,,,,
1751971112.642642,,,,,,,,,,,324.997000000,88.349182129,0.000000000,100.000000000,2.409305096,-29.891996384,-150.000000000,7.127406597,-3.422999382,-100.000000000,60.278636932,0.000000000,0.000000000,166.567596436,0.000000000,0.000000000,106.566551208,0.000000000,0.000000000,135.489501953,0.000000000,0.000000000
1751971112.642965,1751971112.642899990,0.000000000,-0.013032405,0.000000000,0.000000000,-0.041717221,0.000000000,0.000000000,0.076798344,0.000000000,,,,,,,,,,,,,,,,,,,,,,
1751971112.644998,1751971112.644898176,0.000000000,-0.013032405,0.000000000,0.000000000,-0.041717221,0.000000000,0.000000000,0.076798344,0.000000000,,,,,,,,,,,,,,,,,,,,,,
1751971112.645473,,,,,,,,,,,325.000000000,88.349182129,0.000000000,100.000000000,2.409305096,-29.891996384,-150.000000000,7.127406597,-3.422999382,-100.000000000,60.274547577,0.000000000,0.000000000,166.563720703,0.000000000,0.000000000,106.569587708,0.000000000,0.000000000,135.511444092,0.000000000,0.000000000
1751971112.646979,1751971112.646899462,0.000000000,-0.013052673,0.000000000,0.000000000,-0.041714383,0.000000000,0.000000000,0.076802795,0.000000000,,,,,,,,,,,,,,,,,,,,,,
1751971112.648347,,,,,,,,,,,325.003000000,88.349182129,0.000000000,100.000000000,2.409305096,-29.891996384,-150.000000000,7.127406597,-3.422999382,-100.000000000,60.257144928,0.000000000,0.000000000,166.571441650,0.000000000,0.000000000,106.570327759,0.000000000,0.000000000,135.467239380,0.000000000,0.000000000
1751971112.648975,1751971112.648917198,0.000000000,-0.013052673,0.000000000,0.000000000,-0.041714383,0.000000000,0.000000000,0.076802795,0.000000000,,,,,,,,,,,,,,,,,,,,,,
1751971112.650995,1751971112.650902510,0.000000000,-0.013052673,0.000000000,0.000000000,-0.041714383,0.000000000,0.000000000,0.076802795,0.000000000,,,,,,,,,,,,,,,,,,,,,,
1751971112.651275,,,,,,,,,,,325.006000000,88.349182129,0.000000000,100.000000000,2.409305096,-29.891996384,-150.000000000,7.127406597,-3.422999382,-100.000000000,60.264259338,0.000000000,0.000000000,166.570495605,0.000000000,0.000000000,106.560676575,0.000000000,0.000000000,135.550338745,0.000000000,0.000000000
1751971112.652960,1751971112.652899981,0.000000000,-0.013052673,0.000000000,0.000000000,-0.041714383,0.000000000,0.000000000,0.076802795,0.000000000,,,,,,,,,,,,,,,,,,,,,,
1751971112.654091,,,,,,,,,,,325.009000000,88.369293213,0.000000000,100.000000000,2.411322117,-29.891996384,-150.000000000,7.126997471,-3.422999382,-100.000000000,60.267375946,0.000000000,0.000000000,166.569473267,0.000000000,0.000000000,106.556434631,0.000000000,0.000000000,135.593292236,0.000000000,0.000000000
1751971112.654956,1751971112.654896975,0.000000000,-0.013052673,0.000000000,0.000000000,-0.041714383,0.000000000,0.000000000,0.076802795,0.000000000,,,,,,,,,,,,,,,,,,,,,,
1751971112.656832,,,,,,,,,,,325.011000000,88.369293213,0.000000000,100.000000000,2.411322117,-29.891996384,-150.000000000,7.126997471,-3.422999382,-100.000000000,60.264743805,0.000000000,0.000000000,166.585174561,0.000000000,0.000000000,106.553855896,0.000000000,0.000000000,135.535369873,0.000000000,0.000000000
1751971112.656956,1751971112.656897068,0.000000000,-0.013082160,0.000000000,0.000000000,-0.041721470,0.000000000,0.000000000,0.076787722,0.000000000,,,,,,,,,,,,,,,,,,,,,,
1751971112.658962,1751971112.658895493,0.000000000,-0.013082160,0.000000000,0.000000000,-0.041721470,0.000000000,0.000000000,0.076787722,0.000000000,,,,,,,,,,,,,,,,,,,,,,
1751971112.659731,,,,,,,,,,,325.014000000,88.363899231,0.000000000,100.000000000,2.417132139,-29.891996384,-150.000000000,7.129197121,-3.422999382,-100.000000000,60.257453918,0.000000000,0.000000000,166.569885254,0.000000000,0.000000000,106.565498352,0.000000000,0.000000000,135.582397461,0.000000000,0.000000000
1751971112.660959,1751971112.660897255,0.000000000,-0.013082160,0.000000000,0.000000000,-0.041721470,0.000000000,0.000000000,0.076787722,0.000000000,,,,,,,,,,,,,,,,,,,,,,
1751971112.662490,,,,,,,,,,,325.017000000,88.363899231,0.000000000,100.000000000,2.417132139,-29.891996384,-150.000000000,7.129197121,-3.422999382,-100.000000000,60.274238586,0.000000000,0.000000000,166.577896118,0.000000000,0.000000000,106.557510376,0.000000000,0.000000000,135.537277222,0.000000000,0.000000000
1751971112.662973,1751971112.662859678,0.000000000,-0.013082160,0.000000000,0.000000000,-0.041721470,0.000000000,0.000000000,0.076787722,0.000000000,,,,,,,,,,,,,,,,,,,,,,
1751971112.665049,1751971112.664949656,0.000000000,-0.013082160,0.000000000,0.000000000,-0.041721470,0.000000000,0.000000000,0.076787722,0.000000000,,,,,,,,,,,,,,,,,,,,,,
1751971112.665372,,,,,,,,,,,325.020000000,88.363899231,0.000000000,100.000000000,2.417132139,-29.891996384,-150.000000000,7.129197121,-3.422999382,-100.000000000,60.276008606,0.000000000,0.000000000,166.578399658,0.000000000,0.000000000,106.554061890,0.000000000,0.000000000,135.554443359,0.000000000,0.000000000
1751971112.666993,1751971112.666917324,0.000000000,-0.013069178,0.000000000,0.000000000,-0.041731691,0.000000000,0.000000000,0.076762664,0.000000000,,,,,,,,,,,,,,,,,,,,,,
1751971112.668187,,,,,,,,,,,325.023000000,88.363899231,0.000000000,100.000000000,2.417132139,-29.891996384,-150.000000000,7.129197121,-3.422999382,-100.000000000,60.279537201,0.000000000,0.000000000,166.576568604,0.000000000,0.000000000,106.552101135,0.000000000,0.000000000,135.487442017,0.000000000,0.000000000
1751971112.668963,1751971112.668899059,0.000000000,-0.013069178,0.000000000,0.000000000,-0.041731691,0.000000000,0.000000000,0.076762664,0.000000000,,,,,,,,,,,,,,,,,,,,,,
1751971112.671075,1751971112.670914888,0.000000000,-0.013069178,0.000000000,0.000000000,-0.041731691,0.000000000,0.000000000,0.076762664,0.000000000,,,,,,,,,,,,,,,,,,,,,,
1751971112.671135,,,,,,,,,,,325.026000000,88.363899231,0.000000000,100.000000000,2.417132139,-29.891996384,-150.000000000,7.129197121,-3.422999382,-100.000000000,60.275371552,0.000000000,0.000000000,166.571777344,0.000000000,0.000000000,106.556571960,0.000000000,0.000000000,135.458145142,0.000000000,0.000000000
1751971112.673002,1751971112.672920942,0.000000000,-0.013069178,0.000000000,0.000000000,-0.041731691,0.000000000,0.000000000,0.076762664,0.000000000,,,,,,,,,,,,,,,,,,,,,,
1751971112.673967,,,,,,,,,,,325.029000000,88.345031738,0.000000000,100.000000000,2.415552139,-29.891996384,-150.000000000,7.132630825,-3.422999382,-100.000000000,60.279880524,0.000000000,0.000000000,166.574783325,0.000000000,0.000000000,106.556381226,0.000000000,0.000000000,135.428405762,0.000000000,0.000000000
1751971112.674955,1751971112.674895048,0.000000000,-0.013069178,0.000000000,0.000000000,-0.041731691,0.000000000,0.000000000,0.076762664,0.000000000,,,,,,,,,,,,,,,,,,,,,,
1751971112.676885,,,,,,,,,,,325.031000000,88.345031738,0.000000000,100.000000000,2.415552139,-29.891996384,-150.000000000,7.132630825,-3.422999382,-100.000000000,60.269454956,0.000000000,0.000000000,166.590698242,0.000000000,0.000000000,106.564300537,0.000000000,0.000000000,135.462738037,0.000000000,0.000000000
1751971112.676982,1751971112.676911831,0.000000000,-0.013069178,0.000000000,0.000000000,-0.041731691,0.000000000,0.000000000,0.076762664,0.000000000,,,,,,,,,,,,,,,,,,,,,,
1751971112.679008,1751971112.678922415,0.000000000,-0.013033030,0.000000000,0.000000000,-0.041699427,0.000000000,0.000000000,0.076795423,0.000000000,,,,,,,,,,,,,,,,,,,,,,
1751971112.679651,,,,,,,,,,,325.034000000,88.345031738,0.000000000,100.000000000,2.415552139,-29.891996384,-150.000000000,7.132630825,-3.422999382,-100.000000000,60.277198792,0.000000000,0.000000000,166.588012695,0.000000000,0.000000000,106.556602478,0.000000000,0.000000000,135.547378540,0.000000000,0.000000000
1751971112.681044,1751971112.680950165,0.000000000,-0.013033030,0.000000000,0.000000000,-0.041699427,0.000000000,0.000000000,0.076795423,0.000000000,,,,,,,,,,,,,,,,,,,,,,
1751971112.682547,,,,,,,,,,,325.037000000,88.345031738,0.000000000,100.000000000,2.415552139,-29.891996384,-150.000000000,7.132630825,-3.422999382,-100.000000000,60.278076172,0.000000000,0.000000000,166.578521729,0.000000000,0.000000000,106.556396484,0.000000000,0.000000000,135.511215210,0.000000000,0.000000000
1751971112.682962,1751971112.682893515,0.000000000,-0.013033030,0.000000000,0.000000000,-0.041699427,0.000000000,0.000000000,0.076795423,0.000000000,,,,,,,,,,,,,,,,,,,,,,
1751971112.684991,1751971112.684900522,0.000000000,-0.013033030,0.000000000,0.000000000,-0.041699427,0.000000000,0.000000000,0.076795423,0.000000000,,,,,,,,,,,,,,,,,,,,,,
1751971112.685557,,,,,,,,,,,325.040000000,88.345031738,0.000000000,100.000000000,2.415552139,-29.891996384,-150.000000000,7.132630825,-3.422999382,-100.000000000,60.279464722,0.000000000,0.000000000,166.578948975,0.000000000,0.000000000,106.553047180,0.000000000,0.000000000,135.530990601,0.000000000,0.000000000
1751971112.686913,1751971112.686850071,0.000000000,-0.013033030,0.000000000,0.000000000,-0.041699427,0.000000000,0.000000000,0.076795423,0.000000000,,,,,,,,,,,,,,,,,,,,,,
1751971112.688469,,,,,,,,,,,325.043000000,88.345031738,0.000000000,100.000000000,2.415552139,-29.891996384,-150.000000000,7.132630825,-3.422999382,-100.000000000,60.276901245,0.000000000,0.000000000,166.572387695,0.000000000,0.000000000,106.565887451,0.000000000,0.000000000,135.525436401,0.000000000,0.000000000
1751971112.688987,1751971112.688923597,0.000000000,-0.013033030,0.000000000,0.000000000,-0.041699427,0.000000000,0.000000000,0.076795423,0.000000000,,,,,,,,,,,,,,,,,,,,,,
1751971112.690986,1751971112.690911770,0.000000000,-0.013038179,0.000000000,0.000000000,-0.041710735,0.000000000,0.000000000,0.076787508,0.000000000,,,,,,,,,,,,,,,,,,,,,,
1751971112.691349,,,,,,,,,,,325.046000000,88.345031738,0.000000000,100.000000000,2.415552139,-29.891996384,-150.000000000,7.132630825,-3.422999382,-100.000000000,60.278404236,0.000000000,0.000000000,166.573425293,0.000000000,0.000000000,106.561599731,0.000000000,0.000000000,135.595214844,0.000000000,0.000000000
1751971112.692960,1751971112.692895174,0.000000000,-0.013038179,0.000000000,0.000000000,-0.041710735,0.000000000,0.000000000,0.076787508,0.000000000,,,,,,,,,,,,,,,,,,,,,,
1751971112.694192,,,,,,,,,,,325.049000000,88.345031738,0.000000000,100.000000000,2.415552139,-29.891996384,-150.000000000,7.132630825,-3.422999382,-100.000000000,60.274627686,0.000000000,0.000000000,166.593200684,0.000000000,0.000000000,106.544471741,0.000000000,0.000000000,135.528289795,0.000000000,0.000000000
1751971112.694956,1751971112.694900274,0.000000000,-0.013038179,0.000000000,0.000000000,-0.041710735,0.000000000,0.000000000,0.076787508,0.000000000,,,,,,,,,,,,,,,,,,,,,,
1751971112.696987,1751971112.696894884,0.000000000,-0.013038179,0.000000000,0.000000000,-0.041710735,0.000000000,0.000000000,0.076787508,0.000000000,,,,,,,,,,,,,,,,,,,,,,
1751971112.697025,,,,,,,,,,,325.052000000,88.345031738,0.000000000,100.000000000,2.415552139,-29.891996384,-150.000000000,7.132630825,-3.422999382,-100.000000000,60.264656067,0.000000000,0.000000000,166.575744629,0.000000000,0.000000000,106.558654785,0.000000000,0.000000000,135.535568237,0.000000000,0.000000000
1751971112.698975,1751971112.698909760,0.000000000,-0.013038179,0.000000000,0.000000000,-0.041710735,0.000000000,0.000000000,0.076787508,0.000000000,,,,,,,,,,,,,,,,,,,,,,
1751971112.699922,,,,,,,,,,,325.055000000,88.352142334,0.000000000,100.000000000,2.409165144,-29.891996384,-150.000000000,7.127667904,-3.422999382,-100.000000000,60.285148621,0.000000000,0.000000000,166.567108154,0.000000000,0.000000000,106.546371460,0.000000000,0.000000000,135.497467041,0.000000000,0.000000000
1751971112.700984,1751971112.700917482,0.000000000,-0.013038179,0.000000000,0.000000000,-0.041710735,0.000000000,0.000000000,0.076787508,0.000000000,,,,,,,,,,,,,,,,,,,,,,
1751971112.702798,,,,,,,,,,,325.057000000,88.352142334,0.000000000,100.000000000,2.409165144,-29.891996384,-150.000000000,7.127667904,-3.422999382,-100.000000000,60.287498474,0.000000000,0.000000000,166.572525024,0.000000000,0.000000000,106.538322449,0.000000000,0.000000000,135.486404419,0.000000000,0.000000000
1751971112.703025,1751971112.702939749,0.000000000,-0.013010729,0.000000000,0.000000000,-0.041708921,0.000000000,0.000000000,0.076830589,0.000000000,,,,,,,,,,,,,,,,,,,,,,
1751971112.705015,1751971112.704909086,0.000000000,-0.013010729,0.000000000,0.000000000,-0.041708921,0.000000000,0.000000000,0.076830589,0.000000000,,,,,,,,,,,,,,,,,,,,,,
1751971112.705638,,,,,,,,,,,325.060000000,88.352142334,0.000000000,100.000000000,2.409165144,-29.891996384,-150.000000000,7.127667904,-3.422999382,-100.000000000,60.284645081,0.000000000,0.000000000,166.571716309,0.000000000,0.000000000,106.547050476,0.000000000,0.000000000,135.562911987,0.000000000,0.000000000
1751971112.707011,1751971112.706921816,0.000000000,-0.013010729,0.000000000,0.000000000,-0.041708921,0.000000000,0.000000000,0.076830589,0.000000000,,,,,,,,,,,,,,,,,,,,,,
1751971112.708483,,,,,,,,,,,325.063000000,88.352142334,0.000000000,100.000000000,2.409165144,-29.891996384,-150.000000000,7.127667904,-3.422999382,-100.000000000,60.270851135,0.000000000,0.000000000,166.587341309,0.000000000,0.000000000,106.552192688,0.000000000,0.000000000,135.553894043,0.000000000,0.000000000
1751971112.709021,1751971112.708927393,0.000000000,-0.013010729,0.000000000,0.000000000,-0.041708921,0.000000000,0.000000000,0.076830589,0.000000000,,,,,,,,,,,,,,,,,,,,,,
1751971112.710991,1751971112.710899353,0.000000000,-0.013010729,0.000000000,0.000000000,-0.041708921,0.000000000,0.000000000,0.076830589,0.000000000,,,,,,,,,,,,,,,,,,,,,,
1751971112.711327,,,,,,,,,,,325.066000000,88.352142334,0.000000000,100.000000000,2.409165144,-29.891996384,-150.000000000,7.127667904,-3.422999382,-100.000000000,60.272968292,0.000000000,0.000000000,166.586883545,0.000000000,0.000000000,106.558204651,0.000000000,0.000000000,135.569396973,0.000000000,0.000000000
1751971112.712977,1751971112.712914467,0.000000000,-0.013010729,0.000000000,0.000000000,-0.041708921,0.000000000,0.000000000,0.076830589,0.000000000,,,,,,,,,,,,,,,,,,,,,,
1751971112.714126,,,,,,,,,,,325.069000000,88.352142334,0.000000000,100.000000000,2.409165144,-29.891996384,-150.000000000,7.127667904,-3.422999382,-100.000000000,60.262882233,0.000000000,0.000000000,166.599822998,0.000000000,0.000000000,106.551498413,0.000000000,0.000000000,135.498199463,0.000000000,0.000000000
1751971112.714895,1751971112.714847088,0.000000000,-0.013058680,0.000000000,0.000000000,-0.041708547,0.000000000,0.000000000,0.076753652,0.000000000,,,,,,,,,,,,,,,,,,,,,,
1751971112.716888,,,,,,,,,,,325.071000000,88.352142334,0.000000000,100.000000000,2.409165144,-29.891996384,-150.000000000,7.127667904,-3.422999382,-100.000000000,60.267478943,0.000000000,0.000000000,166.588592529,0.000000000,0.000000000,106.564514160,0.000000000,0.000000000,135.481735229,0.000000000,0.000000000
1751971112.716960,1751971112.716899872,0.000000000,-0.013058680,0.000000000,0.000000000,-0.041708547,0.000000000,0.000000000,0.076753652,0.000000000,,,,,,,,,,,,,,,,,,,,,,
1751971112.718954,1751971112.718894720,0.000000000,-0.013058680,0.000000000,0.000000000,-0.041708547,0.000000000,0.000000000,0.076753652,0.000000000,,,,,,,,,,,,,,,,,,,,,,
1751971112.719783,,,,,,,,,,,325.074000000,88.324714661,0.000000000,100.000000000,2.413926601,-29.891996384,-150.000000000,7.130002499,-3.422999382,-100.000000000,60.258895874,0.000000000,0.000000000,166.602264404,0.000000000,0.000000000,106.553253174,0.000000000,0.000000000,135.543273926,0.000000000,0.000000000
1751971112.720956,1751971112.720898390,0.000000000,-0.013058680,0.000000000,0.000000000,-0.041708547,0.000000000,0.000000000,0.076753652,0.000000000,,,,,,,,,,,,,,,,,,,,,,
1751971112.722546,,,,,,,,,,,325.077000000,88.324714661,0.000000000,100.000000000,2.413926601,-29.891996384,-150.000000000,7.130002499,-3.422999382,-100.000000000,60.279594421,0.000000000,0.000000000,166.577514648,0.000000000,0.000000000,106.556854248,0.000000000,0.000000000,135.460876465,0.000000000,0.000000000
1751971112.722957,1751971112.722900152,0.000000000,-0.013058680,0.000000000,0.000000000,-0.041708547,0.000000000,0.000000000,0.076753652,0.000000000,,,,,,,,,,,,,,,,,,,,,,
1751971112.724990,1751971112.724898815,0.000000000,-0.013058680,0.000000000,0.000000000,-0.041708547,0.000000000,0.000000000,0.076753652,0.000000000,,,,,,,,,,,,,,,,,,,,,,
1751971112.725488,,,,,,,,,,,325.080000000,88.324714661,0.000000000,100.000000000,2.413926601,-29.891996384,-150.000000000,7.130002499,-3.422999382,-100.000000000,60.263843536,0.000000000,0.000000000,166.587249756,0.000000000,0.000000000,106.555046082,0.000000000,0.000000000,135.528060913,0.000000000,0.000000000
1751971112.726968,1751971112.726898670,0.000000000,-0.013061907,0.000000000,0.000000000,-0.041724402,0.000000000,0.000000000,0.076791007,0.000000000,,,,,,,,,,,,,,,,,,,,,,
1751971112.728315,,,,,,,,,,,325.083000000,88.324714661,0.000000000,100.000000000,2.413926601,-29.891996384,-150.000000000,7.130002499,-3.422999382,-100.000000000,60.283737183,0.000000000,0.000000000,166.574005127,0.000000000,0.000000000,106.548095703,0.000000000,0.000000000,135.557556152,0.000000000,0.000000000
1751971112.728952,1751971112.728899479,0.000000000,-0.013061907,0.000000000,0.000000000,-0.041724402,0.000000000,0.000000000,0.076791007,0.000000000,,,,,,,,,,,,,,,,,,,,,,
1751971112.730994,1751971112.730917454,0.000000000,-0.013061907,0.000000000,0.000000000,-0.041724402,0.000000000,0.000000000,0.076791007,0.000000000,,,,,,,,,,,,,,,,,,,,,,
1751971112.731089,,,,,,,,,,,325.086000000,88.324714661,0.000000000,100.000000000,2.413926601,-29.891996384,-150.000000000,7.130002499,-3.422999382,-100.000000000,60.284557343,0.000000000,0.000000000,166.574890137,0.000000000,0.000000000,106.545570374,0.000000000,0.000000000,135.572692871,0.000000000,0.000000000
1751971112.732953,1751971112.732865095,0.000000000,-0.013061907,0.000000000,0.000000000,-0.041724402,0.000000000,0.000000000,0.076791007,0.000000000,,,,,,,,,,,,,,,,,,,,,,
1751971112.734018,,,,,,,,,,,325.089000000,88.365142822,0.000000000,100.000000000,2.413359404,-29.891996384,-150.000000000,7.129362583,-3.422999382,-100.000000000,60.281688690,0.000000000,0.000000000,166.572204590,0.000000000,0.000000000,106.563064575,0.000000000,0.000000000,135.558181763,0.000000000,0.000000000
1751971112.734959,1751971112.734893322,0.000000000,-0.013061907,0.000000000,0.000000000,-0.041724402,0.000000000,0.000000000,0.076791007,0.000000000,,,,,,,,,,,,,,,,,,,,,,
1751971112.736852,,,,,,,,,,,325.091000000,88.365142822,0.000000000,100.000000000,2.413359404,-29.891996384,-150.000000000,7.129362583,-3.422999382,-100.000000000,60.285224915,0.000000000,0.000000000,166.575881958,0.000000000,0.000000000,106.556503296,0.000000000,0.000000000,135.558563232,0.000000000,0.000000000
1751971112.736916,1751971112.736847162,0.000000000,-0.013061907,0.000000000,0.000000000,-0.041724402,0.000000000,0.000000000,0.076791007,0.000000000,,,,,,,,,,,,,,,,,,,,,,
1751971112.738968,1751971112.738910913,0.000000000,-0.013041294,0.000000000,0.000000000,-0.041697737,0.000000000,0.000000000,0.076784915,0.000000000,,,,,,,,,,,,,,,,,,,,,,
1751971112.739739,,,,,,,,,,,325.094000000,88.365142822,0.000000000,100.000000000,2.413359404,-29.891996384,-150.000000000,7.129362583,-3.422999382,-100.000000000,60.287063599,0.000000000,0.000000000,166.577758789,0.000000000,0.000000000,106.556343079,0.000000000,0.000000000,135.501602173,0.000000000,0.000000000
1751971112.740963,1751971112.740878344,0.000000000,-0.013041294,0.000000000,0.000000000,-0.041697737,0.000000000,0.000000000,0.076784915,0.000000000,,,,,,,,,,,,,,,,,,,,,,
1751971112.742786,,,,,,,,,,,325.097000000,88.365142822,0.000000000,100.000000000,2.413359404,-29.891996384,-150.000000000,7.129362583,-3.422999382,-100.000000000,60.271080017,0.000000000,0.000000000,166.592361450,0.000000000,0.000000000,106.549407959,0.000000000,0.000000000,135.484680176,0.000000000,0.000000000
1751971112.743045,1751971112.742964029,0.000000000,-0.013041294,0.000000000,0.000000000,-0.041697737,0.000000000,0.000000000,0.076784915,0.000000000,,,,,,,,,,,,,,,,,,,,,,
1751971112.745022,1751971112.744899273,0.000000000,-0.013041294,0.000000000,0.000000000,-0.041697737,0.000000000,0.000000000,0.076784915,0.000000000,,,,,,,,,,,,,,,,,,,,,,
1751971112.745715,,,,,,,,,,,325.100000000,88.344215393,0.000000000,100.000000000,2.409809828,-29.891996384,-150.000000000,7.125998497,-3.422999382,-100.000000000,60.291965485,0.000000000,0.000000000,166.574584961,0.000000000,0.000000000,106.542236328,0.000000000,0.000000000,135.452362061,0.000000000,0.000000000
1751971112.746963,1751971112.746900558,0.000000000,-0.013041294,0.000000000,0.000000000,-0.041697737,0.000000000,0.000000000,0.076784915,0.000000000,,,,,,,,,,,,,,,,,,,,,,
1751971112.748520,,,,,,,,,,,325.103000000,88.344215393,0.000000000,100.000000000,2.409809828,-29.891996384,-150.000000000,7.125998497,-3.422999382,-100.000000000,60.287578583,0.000000000,0.000000000,166.573059082,0.000000000,0.000000000,106.548828125,0.000000000,0.000000000,135.540588379,0.000000000,0.000000000
1751971112.748960,1751971112.748911142,0.000000000,-0.013059685,0.000000000,0.000000000,-0.041710046,0.000000000,0.000000000,0.076784865,0.000000000,,,,,,,,,,,,,,,,,,,,,,
1751971112.751032,1751971112.750922203,0.000000000,-0.013059685,0.000000000,0.000000000,-0.041710046,0.000000000,0.000000000,0.076784865,0.000000000,,,,,,,,,,,,,,,,,,,,,,
1751971112.751373,,,,,,,,,,,325.106000000,88.344215393,0.000000000,100.000000000,2.409809828,-29.891996384,-150.000000000,7.125998497,-3.422999382,-100.000000000,60.282608032,0.000000000,0.000000000,166.568618774,0.000000000,0.000000000,106.562561035,0.000000000,0.000000000,135.557403564,0.000000000,0.000000000
1751971112.752965,1751971112.752894878,0.000000000,-0.013059685,0.000000000,0.000000000,-0.041710046,0.000000000,0.000000000,0.076784865,0.000000000,,,,,,,,,,,,,,,,,,,,,,
1751971112.754208,,,,,,,,,,,325.109000000,88.344215393,0.000000000,100.000000000,2.409809828,-29.891996384,-150.000000000,7.125998497,-3.422999382,-100.000000000,60.287002563,0.000000000,0.000000000,166.575302124,0.000000000,0.000000000,106.552040100,0.000000000,0.000000000,135.526794434,0.000000000,0.000000000
1751971112.754900,1751971112.754854202,0.000000000,-0.013059685,0.000000000,0.000000000,-0.041710046,0.000000000,0.000000000,0.076784865,0.000000000,,,,,,,,,,,,,,,,,,,,,,
1751971112.756977,1751971112.756898403,0.000000000,-0.013059685,0.000000000,0.000000000,-0.041710046,0.000000000,0.000000000,0.076784865,0.000000000,,,,,,,,,,,,,,,,,,,,,,
1751971112.757076,,,,,,,,,,,325.112000000,88.344215393,0.000000000,100.000000000,2.409809828,-29.891996384,-150.000000000,7.125998497,-3.422999382,-100.000000000,60.287506104,0.000000000,0.000000000,166.576049805,0.000000000,0.000000000,106.549133301,0.000000000,0.000000000,135.544998169,0.000000000,0.000000000
1751971112.758989,1751971112.758911133,0.000000000,-0.013068724,0.000000000,0.000000000,-0.041729251,0.000000000,0.000000000,0.076751689,0.000000000,,,,,,,,,,,,,,,,,,,,,,
1751971112.759862,,,,,,,,,,,325.114000000,88.352691650,0.000000000,100.000000000,2.413145781,-29.891996384,-150.000000000,7.127775669,-3.422999382,-100.000000000,60.279460907,0.000000000,0.000000000,166.568649292,0.000000000,0.000000000,106.554664612,0.000000000,0.000000000,135.543121338,0.000000000,0.000000000
1751971112.760993,1751971112.760892868,0.000000000,-0.013068724,0.000000000,0.000000000,-0.041729251,0.000000000,0.000000000,0.076751689,0.000000000,,,,,,,,,,,,,,,,,,,,,,
1751971112.762557,,,,,,,,,,,325.117000000,88.334274292,0.000000000,100.000000000,2.415808678,-29.891996384,-150.000000000,7.133138657,-3.422999382,-100.000000000,60.283763885,0.000000000,0.000000000,166.573547363,0.000000000,0.000000000,106.551795959,0.000000000,0.000000000,135.520965576,0.000000000,0.000000000
1751971112.762958,1751971112.762894392,0.000000000,-0.013068724,0.000000000,0.000000000,-0.041729251,0.000000000,0.000000000,0.076751689,0.000000000,,,,,,,,,,,,,,,,,,,,,,
1751971112.765028,1751971112.764937639,0.000000000,-0.013068724,0.000000000,0.000000000,-0.041729251,0.000000000,0.000000000,0.076751689,0.000000000,,,,,,,,,,,,,,,,,,,,,,
1751971112.765472,,,,,,,,,,,325.120000000,88.334274292,0.000000000,100.000000000,2.415808678,-29.891996384,-150.000000000,7.133138657,-3.422999382,-100.000000000,60.285984039,0.000000000,0.000000000,166.576080322,0.000000000,0.000000000,106.543090820,0.000000000,0.000000000,135.483947754,0.000000000,0.000000000
1751971112.766972,1751971112.766901255,0.000000000,-0.013068724,0.000000000,0.000000000,-0.041729251,0.000000000,0.000000000,0.076751689,0.000000000,,,,,,,,,,,,,,,,,,,,,,
1751971112.768364,,,,,,,,,,,325.123000000,88.334274292,0.000000000,100.000000000,2.415808678,-29.891996384,-150.000000000,7.133138657,-3.422999382,-100.000000000,60.281318665,0.000000000,0.000000000,166.588043213,0.000000000,0.000000000,106.540557861,0.000000000,0.000000000,135.587432861,0.000000000,0.000000000
1751971112.768948,1751971112.768892765,0.000000000,-0.013077664,0.000000000,0.000000000,-0.041705608,0.000000000,0.000000000,0.076723990,0.000000000,,,,,,,,,,,,,,,,,,,,,,
1751971112.770973,1751971112.770902634,0.000000000,-0.013077664,0.000000000,0.000000000,-0.041705608,0.000000000,0.000000000,0.076723990,0.000000000,,,,,,,,,,,,,,,,,,,,,,
1751971112.771239,,,,,,,,,,,325.126000000,88.334274292,0.000000000,100.000000000,2.415808678,-29.891996384,-150.000000000,7.133138657,-3.422999382,-100.000000000,60.271865845,0.000000000,0.000000000,166.598983765,0.000000000,0.000000000,106.544715881,0.000000000,0.000000000,135.620361328,0.000000000,0.000000000
1751971112.772978,1751971112.772900105,0.000000000,-0.013077664,0.000000000,0.000000000,-0.041705608,0.000000000,0.000000000,0.076723990,0.000000000,,,,,,,,,,,,,,,,,,,,,,
1751971112.774049,,,,,,,,,,,325.129000000,88.300361633,0.000000000,100.000000000,2.418286324,-29.891996384,-150.000000000,7.131902218,-3.422999382,-100.000000000,60.285491943,0.000000000,0.000000000,166.577972412,0.000000000,0.000000000,106.559379578,0.000000000,0.000000000,135.650802612,0.000000000,0.000000000
1751971112.774966,1751971112.774914503,0.000000000,-0.013077664,0.000000000,0.000000000,-0.041705608,0.000000000,0.000000000,0.076723990,0.000000000,,,,,,,,,,,,,,,,,,,,,,
1751971112.776899,,,,,,,,,,,325.131000000,88.300361633,0.000000000,100.000000000,2.418286324,-29.891996384,-150.000000000,7.131902218,-3.422999382,-100.000000000,60.286136627,0.000000000,0.000000000,166.578460693,0.000000000,0.000000000,106.555732727,0.000000000,0.000000000,135.656585693,0.000000000,0.000000000
1751971112.776989,1751971112.776921034,0.000000000,-0.013077664,0.000000000,0.000000000,-0.041705608,0.000000000,0.000000000,0.076723990,0.000000000,,,,,,,,,,,,,,,,,,,,,,
1751971112.778934,1751971112.778865099,0.000000000,-0.013087880,0.000000000,0.000000000,-0.041715955,0.000000000,0.000000000,0.076734107,0.000000000,,,,,,,,,,,,,,,,,,,,,,
1751971112.779798,,,,,,,,,,,325.134000000,88.300361633,0.000000000,100.000000000,2.418286324,-29.891996384,-150.000000000,7.131902218,-3.422999382,-100.000000000,60.287723541,0.000000000,0.000000000,166.579666138,0.000000000,0.000000000,106.554092407,0.000000000,0.000000000,135.624496460,0.000000000,0.000000000
1751971112.780977,1751971112.780897617,0.000000000,-0.013087880,0.000000000,0.000000000,-0.041715955,0.000000000,0.000000000,0.076734107,0.000000000,,,,,,,,,,,,,,,,,,,,,,
1751971112.782573,,,,,,,,,,,325.137000000,88.300361633,0.000000000,100.000000000,2.418286324,-29.891996384,-150.000000000,7.131902218,-3.422999382,-100.000000000,60.294288635,0.000000000,0.000000000,166.563507080,0.000000000,0.000000000,106.561607361,0.000000000,0.000000000,135.577087402,0.000000000,0.000000000
1751971112.782955,1751971112.782889605,0.000000000,-0.013087880,0.000000000,0.000000000,-0.041715955,0.000000000,0.000000000,0.076734107,0.000000000,,,,,,,,,,,,,,,,,,,,,,
1751971112.785012,1751971112.784929514,0.000000000,-0.013087880,0.000000000,0.000000000,-0.041715955,0.000000000,0.000000000,0.076734107,0.000000000,,,,,,,,,,,,,,,,,,,,,,
1751971112.785557,,,,,,,,,,,325.140000000,88.300361633,0.000000000,100.000000000,2.418286324,-29.891996384,-150.000000000,7.131902218,-3.422999382,-100.000000000,60.307189941,0.000000000,0.000000000,166.556457520,0.000000000,0.000000000,106.554824829,0.000000000,0.000000000,135.580749512,0.000000000,0.000000000
1751971112.786985,1751971112.786909580,0.000000000,-0.013087880,0.000000000,0.000000000,-0.041715955,0.000000000,0.000000000,0.076734107,0.000000000,,,,,,,,,,,,,,,,,,,,,,
1751971112.788311,,,,,,,,,,,325.143000000,88.300361633,0.000000000,100.000000000,2.418286324,-29.891996384,-150.000000000,7.131902218,-3.422999382,-100.000000000,60.293800354,0.000000000,0.000000000,166.554382324,0.000000000,0.000000000,106.566856384,0.000000000,0.000000000,135.615478516,0.000000000,0.000000000
1751971112.788963,1751971112.788897038,0.000000000,-0.013087880,0.000000000,0.000000000,-0.041715955,0.000000000,0.000000000,0.076734107,0.000000000,,,,,,,,,,,,,,,,,,,,,,
1751971112.790959,1751971112.790880680,0.000000000,-0.013169548,0.000000000,0.000000000,-0.041690533,0.000000000,0.000000000,0.076575684,0.000000000,,,,,,,,,,,,,,,,,,,,,,
1751971112.791261,,,,,,,,,,,325.146000000,88.300361633,0.000000000,100.000000000,2.418286324,-29.891996384,-150.000000000,7.131902218,-3.422999382,-100.000000000,60.299037933,0.000000000,0.000000000,166.562637329,0.000000000,0.000000000,106.564010620,0.000000000,0.000000000,135.573379517,0.000000000,0.000000000
1751971112.792977,1751971112.792913437,0.000000000,-0.013169548,0.000000000,0.000000000,-0.041690533,0.000000000,0.000000000,0.076575684,0.000000000,,,,,,,,,,,,,,,,,,,,,,
1751971112.794102,,,,,,,,,,,325.149000000,88.178077698,0.000000000,100.000000000,2.439578295,-29.891996384,-150.000000000,7.141362190,-3.422999382,-100.000000000,60.287876129,0.000000000,0.000000000,166.558868408,0.000000000,0.000000000,106.565513611,0.000000000,0.000000000,135.568435669,0.000000000,0.000000000
1751971112.794902,1751971112.794848442,0.000000000,-0.013169548,0.000000000,0.000000000,-0.041690533,0.000000000,0.000000000,0.076575684,0.000000000,,,,,,,,,,,,,,,,,,,,,,
1751971112.796916,,,,,,,,,,,325.151000000,88.178077698,0.000000000,100.000000000,2.439578295,-29.891996384,-150.000000000,7.141362190,-3.422999382,-100.000000000,60.288982391,0.000000000,0.000000000,166.565368652,0.000000000,0.000000000,106.562019348,0.000000000,0.000000000,135.564849854,0.000000000,0.000000000
1751971112.797014,1751971112.796927691,0.000000000,-0.013169548,0.000000000,0.000000000,-0.041690533,0.000000000,0.000000000,0.076575684,0.000000000,,,,,,,,,,,,,,,,,,,,,,
1751971112.798963,1751971112.798898935,0.000000000,-0.013169548,0.000000000,0.000000000,-0.041690533,0.000000000,0.000000000,0.076575684,0.000000000,,,,,,,,,,,,,,,,,,,,,,
1751971112.799849,,,,,,,,,,,325.154000000,88.178077698,0.000000000,100.000000000,2.439578295,-29.891996384,-150.000000000,7.141362190,-3.422999382,-100.000000000,60.284595490,0.000000000,0.000000000,166.565979004,0.000000000,0.000000000,106.563201904,0.000000000,0.000000000,135.576904297,0.000000000,0.000000000
1751971112.800960,1751971112.800895929,0.000000000,-0.013340432,0.000000000,0.000000000,-0.041668402,0.000000000,0.000000000,0.076292209,0.000000000,,,,,,,,,,,,,,,,,,,,,,
1751971112.802745,,,,,,,,,,,325.157000000,87.947280884,0.000000000,100.000000000,2.479611158,-29.891996384,-150.000000000,7.160494328,-3.422999382,-100.000000000,60.281021118,0.000000000,0.000000000,166.575836182,0.000000000,0.000000000,106.561836243,0.000000000,0.000000000,135.508911133,0.000000000,0.000000000
1751971112.802961,1751971112.802899599,0.000000000,-0.013340432,0.000000000,0.000000000,-0.041668402,0.000000000,0.000000000,0.076292209,0.000000000,,,,,,,,,,,,,,,,,,,,,,
1751971112.805029,1751971112.804938078,0.000000000,-0.013340432,0.000000000,0.000000000,-0.041668402,0.000000000,0.000000000,0.076292209,0.000000000,,,,,,,,,,,,,,,,,,,,,,
1751971112.805689,,,,,,,,,,,325.160000000,87.947280884,0.000000000,100.000000000,2.479611158,-29.891996384,-150.000000000,7.160494328,-3.422999382,-100.000000000,60.276702881,0.000000000,0.000000000,166.571136475,0.000000000,0.000000000,106.574264526,0.000000000,0.000000000,135.528900146,0.000000000,0.000000000
1751971112.806967,1751971112.806895971,0.000000000,-0.013340432,0.000000000,0.000000000,-0.041668402,0.000000000,0.000000000,0.076292209,0.000000000,,,,,,,,,,,,,,,,,,,,,,
1751971112.808550,,,,,,,,,,,325.163000000,87.947280884,0.000000000,100.000000000,2.479611158,-29.891996384,-150.000000000,7.160494328,-3.422999382,-100.000000000,60.286334991,0.000000000,0.000000000,166.578948975,0.000000000,0.000000000,106.564392090,0.000000000,0.000000000,135.495971680,0.000000000,0.000000000
1751971112.808959,1751971112.808899879,0.000000000,-0.013340432,0.000000000,0.000000000,-0.041668402,0.000000000,0.000000000,0.076292209,0.000000000,,,,,,,,,,,,,,,,,,,,,,
1751971112.810998,1751971112.810896873,0.000000000,-0.013335759,0.000000000,0.000000000,-0.041712625,0.000000000,0.000000000,0.075973929,0.000000000,,,,,,,,,,,,,,,,,,,,,,
1751971112.811369,,,,,,,,,,,325.166000000,87.947280884,0.000000000,100.000000000,2.479611158,-29.891996384,-150.000000000,7.160494328,-3.422999382,-100.000000000,60.289909363,0.000000000,0.000000000,166.557403564,0.000000000,0.000000000,106.567192078,0.000000000,0.000000000,135.465744019,0.000000000,0.000000000
1751971112.812969,1751971112.812900543,0.000000000,-0.013335759,0.000000000,0.000000000,-0.041712625,0.000000000,0.000000000,0.075973929,0.000000000,,,,,,,,,,,,,,,,,,,,,,
1751971112.814183,,,,,,,,,,,325.169000000,87.947280884,0.000000000,100.000000000,2.479611158,-29.891996384,-150.000000000,7.160494328,-3.422999382,-100.000000000,60.264537811,0.000000000,0.000000000,166.564743042,0.000000000,0.000000000,106.570739746,0.000000000,0.000000000,135.511856079,0.000000000,0.000000000
1751971112.814985,1751971112.814900875,0.000000000,-0.013335759,0.000000000,0.000000000,-0.041712625,0.000000000,0.000000000,0.075973929,0.000000000,,,,,,,,,,,,,,,,,,,,,,
1751971112.816984,1751971112.816915274,0.000000000,-0.013335759,0.000000000,0.000000000,-0.041712625,0.000000000,0.000000000,0.075973929,0.000000000,,,,,,,,,,,,,,,,,,,,,,
1751971112.817027,,,,,,,,,,,325.172000000,87.947280884,0.000000000,100.000000000,2.479611158,-29.891996384,-150.000000000,7.160494328,-3.422999382,-100.000000000,60.261871338,0.000000000,0.000000000,166.561141968,0.000000000,0.000000000,106.573348999,0.000000000,0.000000000,135.531555176,0.000000000,0.000000000
1751971112.818947,1751971112.818892479,0.000000000,-0.013335759,0.000000000,0.000000000,-0.041712625,0.000000000,0.000000000,0.075973929,0.000000000,,,,,,,,,,,,,,,,,,,,,,
1751971112.819829,,,,,,,,,,,325.174000000,87.947280884,0.000000000,100.000000000,2.479611158,-29.891996384,-150.000000000,7.160494328,-3.422999382,-100.000000000,60.289676666,0.000000000,0.000000000,166.557632446,0.000000000,0.000000000,106.555007935,0.000000000,0.000000000,135.492004395,0.000000000,0.000000000
1751971112.821045,1751971112.820910931,0.000000000,-0.013335759,0.000000000,0.000000000,-0.041712625,0.000000000,0.000000000,0.075973929,0.000000000,,,,,,,,,,,,,,,,,,,,,,
1751971112.822688,,,,,,,,,,,325.177000000,87.947280884,0.000000000,100.000000000,2.479611158,-29.891996384,-150.000000000,7.160494328,-3.422999382,-100.000000000,60.289901733,0.000000000,0.000000000,166.560150146,0.000000000,0.000000000,106.560737610,0.000000000,0.000000000,135.513687134,0.000000000,0.000000000
1751971112.822972,1751971112.822911501,0.000000000,-0.013079386,0.000000000,0.000000000,-0.041873771,0.000000000,0.000000000,0.075493306,0.000000000,,,,,,,,,,,,,,,,,,,,,,
1751971112.825119,1751971112.824992180,0.000000000,-0.013079386,0.000000000,0.000000000,-0.041873771,0.000000000,0.000000000,0.075493306,0.000000000,,,,,,,,,,,,,,,,,,,,,,
1751971112.825547,,,,,,,,,,,325.180000000,87.947280884,0.000000000,100.000000000,2.479611158,-29.891996384,-150.000000000,7.160494328,-3.422999382,-100.000000000,60.285594940,0.000000000,0.000000000,166.561431885,0.000000000,0.000000000,106.557151794,0.000000000,0.000000000,135.478637695,0.000000000,0.000000000
1751971112.826960,1751971112.826896906,0.000000000,-0.013079386,0.000000000,0.000000000,-0.041873771,0.000000000,0.000000000,0.075493306,0.000000000,,,,,,,,,,,,,,,,,,,,,,
1751971112.828392,,,,,,,,,,,325.183000000,87.947280884,0.000000000,100.000000000,2.479611158,-29.891996384,-150.000000000,7.160494328,-3.422999382,-100.000000000,60.277030945,0.000000000,0.000000000,166.556976318,0.000000000,0.000000000,106.568252563,0.000000000,0.000000000,135.499374390,0.000000000,0.000000000
1751971112.828896,1751971112.828847170,0.000000000,-0.013079386,0.000000000,0.000000000,-0.041873771,0.000000000,0.000000000,0.075493306,0.000000000,,,,,,,,,,,,,,,,,,,,,,
1751971112.831021,1751971112.830899477,0.000000000,-0.013079386,0.000000000,0.000000000,-0.041873771,0.000000000,0.000000000,0.075493306,0.000000000,,,,,,,,,,,,,,,,,,,,,,
1751971112.831333,,,,,,,,,,,325.186000000,87.947280884,0.000000000,100.000000000,2.479611158,-29.891996384,-150.000000000,7.160494328,-3.422999382,-100.000000000,60.282176971,0.000000000,0.000000000,166.565887451,0.000000000,0.000000000,106.559898376,0.000000000,0.000000000,135.519989014,0.000000000,0.000000000
1751971112.832966,1751971112.832894802,0.000000000,-0.012849243,0.000000000,0.000000000,-0.042011213,0.000000000,0.000000000,0.074851989,0.000000000,,,,,,,,,,,,,,,,,,,,,,
1751971112.834112,,,,,,,,,,,325.189000000,87.947280884,0.000000000,100.000000000,2.479611158,-29.891996384,-150.000000000,7.160494328,-3.422999382,-100.000000000,60.284835815,0.000000000,0.000000000,166.570495605,0.000000000,0.000000000,106.549888611,0.000000000,0.000000000,135.473480225,0.000000000,0.000000000
1751971112.834979,1751971112.834915400,0.000000000,-0.012849243,0.000000000,0.000000000,-0.042011213,0.000000000,0.000000000,0.074851989,0.000000000,,,,,,,,,,,,,,,,,,,,,,
1751971112.836956,1751971112.836892843,0.000000000,-0.012849243,0.000000000,0.000000000,-0.042011213,0.000000000,0.000000000,0.074851989,0.000000000,,,,,,,,,,,,,,,,,,,,,,
1751971112.837036,,,,,,,,,,,325.192000000,87.947280884,0.000000000,100.000000000,2.479611158,-29.891996384,-150.000000000,7.160494328,-3.422999382,-100.000000000,60.276199341,0.000000000,0.000000000,166.585845947,0.000000000,0.000000000,106.540618896,0.000000000,0.000000000,135.456726074,0.000000000,0.000000000
1751971112.838954,1751971112.838892460,0.000000000,-0.012849243,0.000000000,0.000000000,-0.042011213,0.000000000,0.000000000,0.074851989,0.000000000,,,,,,,,,,,,,,,,,,,,,,
1751971112.839782,,,,,,,,,,,325.194000000,87.947280884,0.000000000,100.000000000,2.479611158,-29.891996384,-150.000000000,7.160494328,-3.422999382,-100.000000000,60.277675629,0.000000000,0.000000000,166.580902100,0.000000000,0.000000000,106.562606812,0.000000000,0.000000000,135.492004395,0.000000000,0.000000000
1751971112.840963,1751971112.840896606,0.000000000,-0.012849243,0.000000000,0.000000000,-0.042011213,0.000000000,0.000000000,0.074851989,0.000000000,,,,,,,,,,,,,,,,,,,,,,
1751971112.842670,,,,,,,,,,,325.197000000,87.947280884,0.000000000,100.000000000,2.479611158,-29.891996384,-150.000000000,7.160494328,-3.422999382,-100.000000000,60.276142120,0.000000000,0.000000000,166.576019287,0.000000000,0.000000000,106.568176270,0.000000000,0.000000000,135.457687378,0.000000000,0.000000000
1751971112.842957,1751971112.842894554,0.000000000,-0.012849243,0.000000000,0.000000000,-0.042011213,0.000000000,0.000000000,0.074851989,0.000000000,,,,,,,,,,,,,,,,,,,,,,
1751971112.844967,1751971112.844891310,0.000000000,-0.012647195,0.000000000,0.000000000,-0.042235303,0.000000000,0.000000000,0.073871095,0.000000000,,,,,,,,,,,,,,,,,,,,,,
1751971112.845542,,,,,,,,,,,325.200000000,86.792083740,0.000000000,100.000000000,2.435142756,-29.891996384,-150.000000000,7.325907230,-3.422999382,-100.000000000,60.277629852,0.000000000,0.000000000,166.574432373,0.000000000,0.000000000,106.558006287,0.000000000,0.000000000,135.506576538,0.000000000,0.000000000
1751971112.846949,1751971112.846891403,0.000000000,-0.012647195,0.000000000,0.000000000,-0.042235303,0.000000000,0.000000000,0.073871095,0.000000000,,,,,,,,,,,,,,,,,,,,,,
1751971112.848370,,,,,,,,,,,325.203000000,86.792083740,0.000000000,100.000000000,2.435142756,-29.891996384,-150.000000000,7.325907230,-3.422999382,-100.000000000,60.266845703,0.000000000,0.000000000,166.562057495,0.000000000,0.000000000,106.575759888,0.000000000,0.000000000,135.463684082,0.000000000,0.000000000
1751971112.848958,1751971112.848895788,0.000000000,-0.012647195,0.000000000,0.000000000,-0.042235303,0.000000000,0.000000000,0.073871095,0.000000000,,,,,,,,,,,,,,,,,,,,,,
1751971112.850975,1751971112.850889206,0.000000000,-0.012647195,0.000000000,0.000000000,-0.042235303,0.000000000,0.000000000,0.073871095,0.000000000,,,,,,,,,,,,,,,,,,,,,,
1751971112.851354,,,,,,,,,,,325.206000000,86.792083740,0.000000000,100.000000000,2.435142756,-29.891996384,-150.000000000,7.325907230,-3.422999382,-100.000000000,60.257850647,0.000000000,0.000000000,166.578964233,0.000000000,0.000000000,106.562988281,0.000000000,0.000000000,135.422576904,0.000000000,0.000000000
1751971112.852941,1751971112.852890730,0.000000000,-0.012647195,0.000000000,0.000000000,-0.042235303,0.000000000,0.000000000,0.073871095,0.000000000,,,,,,,,,,,,,,,,,,,,,,
1751971112.854173,,,,,,,,,,,325.209000000,86.792083740,0.000000000,100.000000000,2.435142756,-29.891996384,-150.000000000,7.325907230,-3.422999382,-100.000000000,60.275646210,0.000000000,0.000000000,166.581024170,0.000000000,0.000000000,106.555847168,0.000000000,0.000000000,135.467803955,0.000000000,0.000000000
1751971112.854949,1751971112.854891300,0.000000000,-0.012647195,0.000000000,0.000000000,-0.042235303,0.000000000,0.000000000,0.073871095,0.000000000,,,,,,,,,,,,,,,,,,,,,,
1751971112.856957,1751971112.856890440,0.000000000,-0.012249257,0.000000000,0.000000000,-0.042439935,0.000000000,0.000000000,0.072826802,0.000000000,,,,,,,,,,,,,,,,,,,,,,
1751971112.857029,,,,,,,,,,,325.212000000,86.792083740,0.000000000,100.000000000,2.435142756,-29.891996384,-150.000000000,7.325907230,-3.422999382,-100.000000000,60.277282715,0.000000000,0.000000000,166.581207275,0.000000000,0.000000000,106.552566528,0.000000000,0.000000000,135.440490723,0.000000000,0.000000000
1751971112.858958,1751971112.858899593,0.000000000,-0.012249257,0.000000000,0.000000000,-0.042439935,0.000000000,0.000000000,0.072826802,0.000000000,,,,,,,,,,,,,,,,,,,,,,
1751971112.859940,,,,,,,,,,,325.215000000,85.175910950,0.000000000,100.000000000,2.386904478,-29.891996384,-150.000000000,7.557890415,-3.422999382,-100.000000000,60.285713196,0.000000000,0.000000000,166.558685303,0.000000000,0.000000000,106.564407349,0.000000000,0.000000000,135.425292969,0.000000000,0.000000000
1751971112.860995,1751971112.860911846,0.000000000,-0.012249257,0.000000000,0.000000000,-0.042439935,0.000000000,0.000000000,0.072826802,0.000000000,,,,,,,,,,,,,,,,,,,,,,
1751971112.862796,,,,,,,,,,,325.217000000,85.175910950,0.000000000,100.000000000,2.386904478,-29.891996384,-150.000000000,7.557890415,-3.422999382,-100.000000000,60.287403107,0.000000000,0.000000000,166.565246582,0.000000000,0.000000000,106.568450928,0.000000000,0.000000000,135.409057617,0.000000000,0.000000000
1751971112.862970,1751971112.862911463,0.000000000,-0.012249257,0.000000000,0.000000000,-0.042439935,0.000000000,0.000000000,0.072826802,0.000000000,,,,,,,,,,,,,,,,,,,,,,
1751971112.864977,1751971112.864919662,0.000000000,-0.012249257,0.000000000,0.000000000,-0.042439935,0.000000000,0.000000000,0.072826802,0.000000000,,,,,,,,,,,,,,,,,,,,,,
1751971112.865738,,,,,,,,,,,325.220000000,85.175910950,0.000000000,100.000000000,2.386904478,-29.891996384,-150.000000000,7.557890415,-3.422999382,-100.000000000,60.285034180,0.000000000,0.000000000,166.567367554,0.000000000,0.000000000,106.564704895,0.000000000,0.000000000,135.335327148,0.000000000,0.000000000
1751971112.866986,1751971112.866919518,0.000000000,-0.012061805,0.000000000,0.000000000,-0.042712870,0.000000000,0.000000000,0.071790533,0.000000000,,,,,,,,,,,,,,,,,,,,,,
1751971112.868529,,,,,,,,,,,325.223000000,85.175910950,0.000000000,100.000000000,2.386904478,-29.891996384,-150.000000000,7.557890415,-3.422999382,-100.000000000,60.271045685,0.000000000,0.000000000,166.575836182,0.000000000,0.000000000,106.561904907,0.000000000,0.000000000,135.502899170,0.000000000,0.000000000
1751971112.869016,1751971112.868947506,0.000000000,-0.012061805,0.000000000,0.000000000,-0.042712870,0.000000000,0.000000000,0.071790533,0.000000000,,,,,,,,,,,,,,,,,,,,,,
1751971112.871016,1751971112.870927572,0.000000000,-0.012061805,0.000000000,0.000000000,-0.042712870,0.000000000,0.000000000,0.071790533,0.000000000,,,,,,,,,,,,,,,,,,,,,,
1751971112.871480,,,,,,,,,,,325.226000000,85.175910950,0.000000000,100.000000000,2.386904478,-29.891996384,-150.000000000,7.557890415,-3.422999382,-100.000000000,60.288368225,0.000000000,0.000000000,166.561309814,0.000000000,0.000000000,106.566947937,0.000000000,0.000000000,135.523498535,0.000000000,0.000000000
1751971112.873003,1751971112.872922421,0.000000000,-0.012061805,0.000000000,0.000000000,-0.042712870,0.000000000,0.000000000,0.071790533,0.000000000,,,,,,,,,,,,,,,,,,,,,,
1751971112.874433,,,,,,,,,,,325.229000000,85.175910950,0.000000000,100.000000000,2.386904478,-29.891996384,-150.000000000,7.557890415,-3.422999382,-100.000000000,60.296104431,0.000000000,0.000000000,166.557495117,0.000000000,0.000000000,106.560646057,0.000000000,0.000000000,135.492843628,0.000000000,0.000000000
1751971112.874994,1751971112.874914169,0.000000000,-0.012061805,0.000000000,0.000000000,-0.042712870,0.000000000,0.000000000,0.071790533,0.000000000,,,,,,,,,,,,,,,,,,,,,,
1751971112.876965,1751971112.876896143,0.000000000,-0.012061805,0.000000000,0.000000000,-0.042712870,0.000000000,0.000000000,0.071790533,0.000000000,,,,,,,,,,,,,,,,,,,,,,
1751971112.877362,,,,,,,,,,,325.232000000,85.175910950,0.000000000,100.000000000,2.386904478,-29.891996384,-150.000000000,7.557890415,-3.422999382,-100.000000000,60.280471802,0.000000000,0.000000000,166.575256348,0.000000000,0.000000000,106.556877136,0.000000000,0.000000000,135.514465332,0.000000000,0.000000000
1751971112.878966,1751971112.878902674,0.000000000,-0.011814498,0.000000000,0.000000000,-0.043013546,0.000000000,0.000000000,0.070641902,0.000000000,,,,,,,,,,,,,,,,,,,,,,
1751971112.880199,,,,,,,,,,,325.235000000,85.175910950,0.000000000,100.000000000,2.386904478,-29.891996384,-150.000000000,7.557890415,-3.422999382,-100.000000000,60.291053772,0.000000000,0.000000000,166.560119629,0.000000000,0.000000000,106.569595337,0.000000000,0.000000000,135.469436646,0.000000000,0.000000000
1751971112.880976,1751971112.880909204,0.000000000,-0.011814498,0.000000000,0.000000000,-0.043013546,0.000000000,0.000000000,0.070641902,0.000000000,,,,,,,,,,,,,,,,,,,,,,
1751971112.882966,1751971112.882897854,0.000000000,-0.011814498,0.000000000,0.000000000,-0.043013546,0.000000000,0.000000000,0.070641902,0.000000000,,,,,,,,,,,,,,,,,,,,,,
1751971112.883039,,,,,,,,,,,325.238000000,85.175910950,0.000000000,100.000000000,2.386904478,-29.891996384,-150.000000000,7.557890415,-3.422999382,-100.000000000,60.291305542,0.000000000,0.000000000,166.566284180,0.000000000,0.000000000,106.565895081,0.000000000,0.000000000,135.482894897,0.000000000,0.000000000
1751971112.884959,1751971112.884896517,0.000000000,-0.011814498,0.000000000,0.000000000,-0.043013546,0.000000000,0.000000000,0.070641902,0.000000000,,,,,,,,,,,,,,,,,,,,,,
1751971112.885796,,,,,,,,,,,325.240000000,83.546546936,0.000000000,100.000000000,2.373638630,-29.891996384,-150.000000000,7.834263325,-3.422999382,-100.000000000,60.277294159,0.000000000,0.000000000,166.557769775,0.000000000,0.000000000,106.570541382,0.000000000,0.000000000,135.560607910,0.000000000,0.000000000
1751971112.886957,1751971112.886898279,0.000000000,-0.011814498,0.000000000,0.000000000,-0.043013546,0.000000000,0.000000000,0.070641902,0.000000000,,,,,,,,,,,,,,,,,,,,,,
1751971112.888734,,,,,,,,,,,325.243000000,83.546546936,0.000000000,100.000000000,2.373638630,-29.891996384,-150.000000000,7.834263325,-3.422999382,-100.000000000,60.272006989,0.000000000,0.000000000,166.555328369,0.000000000,0.000000000,106.587265015,0.000000000,0.000000000,135.461425781,0.000000000,0.000000000
1751971112.889003,1751971112.888900518,0.000000000,-0.011538710,0.000000000,0.000000000,-0.043302251,0.000000000,0.000000000,0.069511054,0.000000000,,,,,,,,,,,,,,,,,,,,,,
1751971112.890971,1751971112.890919447,0.000000000,-0.011538710,0.000000000,0.000000000,-0.043302251,0.000000000,0.000000000,0.069511054,0.000000000,,,,,,,,,,,,,,,,,,,,,,
1751971112.891493,,,,,,,,,,,325.246000000,82.704376221,0.000000000,100.000000000,2.356263399,-29.891996384,-150.000000000,7.980260849,-3.422999382,-100.000000000,60.274925232,0.000000000,0.000000000,166.560852051,0.000000000,0.000000000,106.570526123,0.000000000,0.000000000,135.509033203,0.000000000,0.000000000
1751971112.892941,1751971112.892889738,0.000000000,-0.011538710,0.000000000,0.000000000,-0.043302251,0.000000000,0.000000000,0.069511054,0.000000000,,,,,,,,,,,,,,,,,,,,,,
1751971112.894385,,,,,,,,,,,325.249000000,82.704376221,0.000000000,100.000000000,2.356263399,-29.891996384,-150.000000000,7.980260849,-3.422999382,-100.000000000,60.268589020,0.000000000,0.000000000,166.573303223,0.000000000,0.000000000,106.576759338,0.000000000,0.000000000,135.561889648,0.000000000,0.000000000
1751971112.894898,1751971112.894851446,0.000000000,-0.011538710,0.000000000,0.000000000,-0.043302251,0.000000000,0.000000000,0.069511054,0.000000000,,,,,,,,,,,,,,,,,,,,,,
1751971112.896970,1751971112.896897078,0.000000000,-0.011538710,0.000000000,0.000000000,-0.043302251,0.000000000,0.000000000,0.069511054,0.000000000,,,,,,,,,,,,,,,,,,,,,,
1751971112.897304,,,,,,,,,,,325.252000000,82.704376221,0.000000000,100.000000000,2.356263399,-29.891996384,-150.000000000,7.980260849,-3.422999382,-100.000000000,60.270927429,0.000000000,0.000000000,166.574249268,0.000000000,0.000000000,106.571372986,0.000000000,0.000000000,135.576583862,0.000000000,0.000000000
1751971112.898946,1751971112.898892403,0.000000000,-0.011499058,0.000000000,0.000000000,-0.043517523,0.000000000,0.000000000,0.068459676,0.000000000,,,,,,,,,,,,,,,,,,,,,,
1751971112.900226,,,,,,,,,,,325.255000000,82.704376221,0.000000000,100.000000000,2.356263399,-29.891996384,-150.000000000,7.980260849,-3.422999382,-100.000000000,60.266952515,0.000000000,0.000000000,166.564453125,0.000000000,0.000000000,106.572845459,0.000000000,0.000000000,135.532806396,0.000000000,0.000000000
1751971112.901131,1751971112.900950670,0.000000000,-0.011499058,0.000000000,0.000000000,-0.043517523,0.000000000,0.000000000,0.068459676,0.000000000,,,,,,,,,,,,,,,,,,,,,,
1751971112.902981,1751971112.902873039,0.000000000,-0.011499058,0.000000000,0.000000000,-0.043517523,0.000000000,0.000000000,0.068459676,0.000000000,,,,,,,,,,,,,,,,,,,,,,
1751971112.903069,,,,,,,,,,,325.258000000,82.704376221,0.000000000,100.000000000,2.356263399,-29.891996384,-150.000000000,7.980260849,-3.422999382,-100.000000000,60.269447327,0.000000000,0.000000000,166.566314697,0.000000000,0.000000000,106.576782227,0.000000000,0.000000000,135.550415039,0.000000000,0.000000000
1751971112.904986,1751971112.904914141,0.000000000,-0.011499058,0.000000000,0.000000000,-0.043517523,0.000000000,0.000000000,0.068459676,0.000000000,,,,,,,,,,,,,,,,,,,,,,
1751971112.905802,,,,,,,,,,,325.260000000,82.704376221,0.000000000,100.000000000,2.356263399,-29.891996384,-150.000000000,7.980260849,-3.422999382,-100.000000000,60.284393311,0.000000000,0.000000000,166.552215576,0.000000000,0.000000000,106.576072693,0.000000000,0.000000000,135.593383789,0.000000000,0.000000000
1751971112.906996,1751971112.906919003,0.000000000,-0.011499058,0.000000000,0.000000000,-0.043517523,0.000000000,0.000000000,0.068459676,0.000000000,,,,,,,,,,,,,,,,,,,,,,
1751971112.908659,,,,,,,,,,,325.263000000,82.704376221,0.000000000,100.000000000,2.356263399,-29.891996384,-150.000000000,7.980260849,-3.422999382,-100.000000000,60.280208588,0.000000000,0.000000000,166.557022095,0.000000000,0.000000000,106.575561523,0.000000000,0.000000000,135.526962280,0.000000000,0.000000000
1751971112.908970,1751971112.908900023,0.000000000,-0.011499058,0.000000000,0.000000000,-0.043517523,0.000000000,0.000000000,0.068459676,0.000000000,,,,,,,,,,,,,,,,,,,,,,
1751971112.910970,1751971112.910894871,0.000000000,-0.011514278,0.000000000,0.000000000,-0.043888508,0.000000000,0.000000000,0.067164406,0.000000000,,,,,,,,,,,,,,,,,,,,,,
1751971112.911502,,,,,,,,,,,325.266000000,81.931251526,0.000000000,100.000000000,2.383717775,-29.891996384,-150.000000000,8.110688210,-3.422999382,-100.000000000,60.284255981,0.000000000,0.000000000,166.565917969,0.000000000,0.000000000,106.563980103,0.000000000,0.000000000,135.589508057,0.000000000,0.000000000
1751971112.912979,1751971112.912893534,0.000000000,-0.011514278,0.000000000,0.000000000,-0.043888508,0.000000000,0.000000000,0.067164406,0.000000000,,,,,,,,,,,,,,,,,,,,,,
1751971112.914266,,,,,,,,,,,325.269000000,81.931251526,0.000000000,100.000000000,2.383717775,-29.891996384,-150.000000000,8.110688210,-3.422999382,-100.000000000,60.280937195,0.000000000,0.000000000,166.565093994,0.000000000,0.000000000,106.576416016,0.000000000,0.000000000,135.580200195,0.000000000,0.000000000
1751971112.914972,1751971112.914897919,0.000000000,-0.011514278,0.000000000,0.000000000,-0.043888508,0.000000000,0.000000000,0.067164406,0.000000000,,,,,,,,,,,,,,,,,,,,,,
1751971112.916955,1751971112.916885376,0.000000000,-0.011514278,0.000000000,0.000000000,-0.043888508,0.000000000,0.000000000,0.067164406,0.000000000,,,,,,,,,,,,,,,,,,,,,,
1751971112.917089,,,,,,,,,,,325.272000000,81.931251526,0.000000000,100.000000000,2.383717775,-29.891996384,-150.000000000,8.110688210,-3.422999382,-100.000000000,60.279853821,0.000000000,0.000000000,166.566345215,0.000000000,0.000000000,106.572708130,0.000000000,0.000000000,135.582809448,0.000000000,0.000000000
1751971112.918937,1751971112.918892622,0.000000000,-0.011514278,0.000000000,0.000000000,-0.043888508,0.000000000,0.000000000,0.067164406,0.000000000,,,,,,,,,,,,,,,,,,,,,,
1751971112.919918,,,,,,,,,,,325.275000000,81.931251526,0.000000000,100.000000000,2.383717775,-29.891996384,-150.000000000,8.110688210,-3.422999382,-100.000000000,60.273937225,0.000000000,0.000000000,166.562744141,0.000000000,0.000000000,106.568725586,0.000000000,0.000000000,135.583770752,0.000000000,0.000000000
1751971112.920953,1751971112.920893669,0.000000000,-0.011514278,0.000000000,0.000000000,-0.043888508,0.000000000,0.000000000,0.067164406,0.000000000,,,,,,,,,,,,,,,,,,,,,,
1751971112.922817,,,,,,,,,,,325.277000000,81.931251526,0.000000000,100.000000000,2.383717775,-29.891996384,-150.000000000,8.110688210,-3.422999382,-100.000000000,60.275749207,0.000000000,0.000000000,166.564758301,0.000000000,0.000000000,106.564140320,0.000000000,0.000000000,135.596282959,0.000000000,0.000000000
1751971112.922953,1751971112.922900200,0.000000000,-0.011554456,0.000000000,0.000000000,-0.044189502,0.000000000,0.000000000,0.065779141,0.000000000,,,,,,,,,,,,,,,,,,,,,,
1751971112.924949,1751971112.924891233,0.000000000,-0.011554456,0.000000000,0.000000000,-0.044189502,0.000000000,0.000000000,0.065779141,0.000000000,,,,,,,,,,,,,,,,,,,,,,
1751971112.925747,,,,,,,,,,,325.280000000,80.081916809,0.000000000,100.000000000,2.490668297,-29.891996384,-150.000000000,8.473162651,-3.422999382,-100.000000000,60.280155182,0.000000000,0.000000000,166.569641113,0.000000000,0.000000000,106.552978516,0.000000000,0.000000000,135.538864136,0.000000000,0.000000000
1751971112.926955,1751971112.926898241,0.000000000,-0.011554456,0.000000000,0.000000000,-0.044189502,0.000000000,0.000000000,0.065779141,0.000000000,,,,,,,,,,,,,,,,,,,,,,
1751971112.928408,,,,,,,,,,,325.283000000,80.081916809,0.000000000,100.000000000,2.490668297,-29.891996384,-150.000000000,8.473162651,-3.422999382,-100.000000000,60.283355713,0.000000000,0.000000000,166.573242188,0.000000000,0.000000000,106.544845581,0.000000000,0.000000000,135.543273926,0.000000000,0.000000000
1751971112.928948,1751971112.928892136,0.000000000,-0.011554456,0.000000000,0.000000000,-0.044189502,0.000000000,0.000000000,0.065779141,0.000000000,,,,,,,,,,,,,,,,,,,,,,
1751971112.931011,1751971112.930916548,0.000000000,-0.011554456,0.000000000,0.000000000,-0.044189502,0.000000000,0.000000000,0.065779141,0.000000000,,,,,,,,,,,,,,,,,,,,,,
1751971112.931377,,,,,,,,,,,325.286000000,80.081916809,0.000000000,100.000000000,2.490668297,-29.891996384,-150.000000000,8.473162651,-3.422999382,-100.000000000,60.290695190,0.000000000,0.000000000,166.580932617,0.000000000,0.000000000,106.531341553,0.000000000,0.000000000,135.502532959,0.000000000,0.000000000
1751971112.932947,1751971112.932891846,0.000000000,-0.011420878,0.000000000,0.000000000,-0.044406017,0.000000000,0.000000000,0.064797725,0.000000000,,,,,,,,,,,,,,,,,,,,,,
1751971112.934212,,,,,,,,,,,325.289000000,80.081916809,0.000000000,100.000000000,2.490668297,-29.891996384,-150.000000000,8.473162651,-3.422999382,-100.000000000,60.286495209,0.000000000,0.000000000,166.577087402,0.000000000,0.000000000,106.541656494,0.000000000,0.000000000,135.558746338,0.000000000,0.000000000
1751971112.934922,1751971112.934856892,0.000000000,-0.011420878,0.000000000,0.000000000,-0.044406017,0.000000000,0.000000000,0.064797725,0.000000000,,,,,,,,,,,,,,,,,,,,,,
1751971112.936875,,,,,,,,,,,325.291000000,80.081916809,0.000000000,100.000000000,2.490668297,-29.891996384,-150.000000000,8.473162651,-3.422999382,-100.000000000,60.287036896,0.000000000,0.000000000,166.577667236,0.000000000,0.000000000,106.539779663,0.000000000,0.000000000,135.573776245,0.000000000,0.000000000
1751971112.936945,1751971112.936895847,0.000000000,-0.011420878,0.000000000,0.000000000,-0.044406017,0.000000000,0.000000000,0.064797725,0.000000000,,,,,,,,,,,,,,,,,,,,,,
1751971112.938948,1751971112.938890219,0.000000000,-0.011420878,0.000000000,0.000000000,-0.044406017,0.000000000,0.000000000,0.064797725,0.000000000,,,,,,,,,,,,,,,,,,,,,,
1751971112.939769,,,,,,,,,,,325.294000000,79.379318237,0.000000000,100.000000000,2.498990297,-29.891996384,-150.000000000,8.605731010,-3.422999382,-100.000000000,60.283996582,0.000000000,0.000000000,166.574707031,0.000000000,0.000000000,106.541198730,0.000000000,0.000000000,135.568725586,0.000000000,0.000000000
1751971112.940977,1751971112.940910578,0.000000000,-0.011420878,0.000000000,0.000000000,-0.044406017,0.000000000,0.000000000,0.064797725,0.000000000,,,,,,,,,,,,,,,,,,,,,,
1751971112.942642,,,,,,,,,,,325.297000000,79.379318237,0.000000000,100.000000000,2.498990297,-29.891996384,-150.000000000,8.605731010,-3.422999382,-100.000000000,60.281860352,0.000000000,0.000000000,166.572647095,0.000000000,0.000000000,106.550506592,0.000000000,0.000000000,135.523864746,0.000000000,0.000000000
1751971112.942974,1751971112.942914963,0.000000000,-0.011420878,0.000000000,0.000000000,-0.044406017,0.000000000,0.000000000,0.064797725,0.000000000,,,,,,,,,,,,,,,,,,,,,,
1751971112.945010,1751971112.944926500,0.000000000,-0.011550055,0.000000000,0.000000000,-0.044607147,0.000000000,0.000000000,0.063319311,0.000000000,,,,,,,,,,,,,,,,,,,,,,
1751971112.945612,,,,,,,,,,,325.300000000,79.379318237,0.000000000,100.000000000,2.498990297,-29.891996384,-150.000000000,8.605731010,-3.422999382,-100.000000000,60.284591675,0.000000000,0.000000000,166.575439453,0.000000000,0.000000000,106.567253113,0.000000000,0.000000000,135.574005127,0.000000000,0.000000000
1751971112.946981,1751971112.946917057,0.000000000,-0.011550055,0.000000000,0.000000000,-0.044607147,0.000000000,0.000000000,0.063319311,0.000000000,,,,,,,,,,,,,,,,,,,,,,
1751971112.948499,,,,,,,,,,,325.303000000,79.379318237,0.000000000,100.000000000,2.498990297,-29.891996384,-150.000000000,8.605731010,-3.422999382,-100.000000000,60.277137756,0.000000000,0.000000000,166.567977905,0.000000000,0.000000000,106.562225342,0.000000000,0.000000000,135.488296509,0.000000000,0.000000000
1751971112.948994,1751971112.948929548,0.000000000,-0.011550055,0.000000000,0.000000000,-0.044607147,0.000000000,0.000000000,0.063319311,0.000000000,,,,,,,,,,,,,,,,,,,,,,
1751971112.950999,1751971112.950896025,0.000000000,-0.011550055,0.000000000,0.000000000,-0.044607147,0.000000000,0.000000000,0.063319311,0.000000000,,,,,,,,,,,,,,,,,,,,,,
1751971112.951348,,,,,,,,,,,325.306000000,79.379318237,0.000000000,100.000000000,2.498990297,-29.891996384,-150.000000000,8.605731010,-3.422999382,-100.000000000,60.263080597,0.000000000,0.000000000,166.581329346,0.000000000,0.000000000,106.581779480,0.000000000,0.000000000,135.548080444,0.000000000,0.000000000
1751971112.952961,1751971112.952894449,0.000000000,-0.011550055,0.000000000,0.000000000,-0.044607147,0.000000000,0.000000000,0.063319311,0.000000000,,,,,,,,,,,,,,,,,,,,,,
1751971112.954307,,,,,,,,,,,325.309000000,79.379318237,0.000000000,100.000000000,2.498990297,-29.891996384,-150.000000000,8.605731010,-3.422999382,-100.000000000,60.257789612,0.000000000,0.000000000,166.597091675,0.000000000,0.000000000,106.570480347,0.000000000,0.000000000,135.468200684,0.000000000,0.000000000
1751971112.954943,1751971112.954892397,0.000000000,-0.011550055,0.000000000,0.000000000,-0.044607147,0.000000000,0.000000000,0.063319311,0.000000000,,,,,,,,,,,,,,,,,,,,,,
1751971112.957037,1751971112.956958294,0.000000000,-0.011642974,0.000000000,0.000000000,-0.044783577,0.000000000,0.000000000,0.061830325,0.000000000,,,,,,,,,,,,,,,,,,,,,,
1751971112.957212,,,,,,,,,,,325.312000000,79.379318237,0.000000000,100.000000000,2.498990297,-29.891996384,-150.000000000,8.605731010,-3.422999382,-100.000000000,60.245986938,0.000000000,0.000000000,166.610900879,0.000000000,0.000000000,106.574661255,0.000000000,0.000000000,135.440841675,0.000000000,0.000000000
1751971112.958947,1751971112.958892822,0.000000000,-0.011642974,0.000000000,0.000000000,-0.044783577,0.000000000,0.000000000,0.061830325,0.000000000,,,,,,,,,,,,,,,,,,,,,,
1751971112.959955,,,,,,,,,,,325.315000000,79.379318237,0.000000000,100.000000000,2.498990297,-29.891996384,-150.000000000,8.605731010,-3.422999382,-100.000000000,60.263008118,0.000000000,0.000000000,166.586456299,0.000000000,0.000000000,106.581153870,0.000000000,0.000000000,135.445480347,0.000000000,0.000000000
1751971112.960951,1751971112.960893631,0.000000000,-0.011642974,0.000000000,0.000000000,-0.044783577,0.000000000,0.000000000,0.061830325,0.000000000,,,,,,,,,,,,,,,,,,,,,,
1751971112.962811,,,,,,,,,,,325.317000000,79.379318237,0.000000000,100.000000000,2.498990297,-29.891996384,-150.000000000,8.605731010,-3.422999382,-100.000000000,60.254955292,0.000000000,0.000000000,166.614074707,0.000000000,0.000000000,106.560989380,0.000000000,0.000000000,135.489791870,0.000000000,0.000000000
1751971112.962958,1751971112.962896109,0.000000000,-0.011642974,0.000000000,0.000000000,-0.044783577,0.000000000,0.000000000,0.061830325,0.000000000,,,,,,,,,,,,,,,,,,,,,,
1751971112.964995,1751971112.964896679,0.000000000,-0.011642974,0.000000000,0.000000000,-0.044783577,0.000000000,0.000000000,0.061830325,0.000000000,,,,,,,,,,,,,,,,,,,,,,
1751971112.965721,,,,,,,,,,,325.320000000,77.227691650,0.000000000,100.000000000,2.666054487,-29.891996384,-150.000000000,8.978934288,-3.422999382,-100.000000000,60.253982544,0.000000000,0.000000000,166.617050171,0.000000000,0.000000000,106.564880371,0.000000000,0.000000000,135.476211548,0.000000000,0.000000000
1751971112.966980,1751971112.966900110,0.000000000,-0.011686736,0.000000000,0.000000000,-0.044872613,0.000000000,0.000000000,0.060544360,0.000000000,,,,,,,,,,,,,,,,,,,,,,
1751971112.968573,,,,,,,,,,,325.323000000,77.227691650,0.000000000,100.000000000,2.666054487,-29.891996384,-150.000000000,8.978934288,-3.422999382,-100.000000000,60.259899139,0.000000000,0.000000000,166.603408813,0.000000000,0.000000000,106.583702087,0.000000000,0.000000000,135.539260864,0.000000000,0.000000000
1751971112.968967,1751971112.968898296,0.000000000,-0.011686736,0.000000000,0.000000000,-0.044872613,0.000000000,0.000000000,0.060544360,0.000000000,,,,,,,,,,,,,,,,,,,,,,
1751971112.970963,1751971112.970897675,0.000000000,-0.011686736,0.000000000,0.000000000,-0.044872613,0.000000000,0.000000000,0.060544360,0.000000000,,,,,,,,,,,,,,,,,,,,,,
1751971112.971472,,,,,,,,,,,325.326000000,77.227691650,0.000000000,100.000000000,2.666054487,-29.891996384,-150.000000000,8.978934288,-3.422999382,-100.000000000,60.265510559,0.000000000,0.000000000,166.590942383,0.000000000,0.000000000,106.570198059,0.000000000,0.000000000,135.555938721,0.000000000,0.000000000
1751971112.972952,1751971112.972895384,0.000000000,-0.011686736,0.000000000,0.000000000,-0.044872613,0.000000000,0.000000000,0.060544360,0.000000000,,,,,,,,,,,,,,,,,,,,,,
1751971112.974344,,,,,,,,,,,325.329000000,77.227691650,0.000000000,100.000000000,2.666054487,-29.891996384,-150.000000000,8.978934288,-3.422999382,-100.000000000,60.258377075,0.000000000,0.000000000,166.590469360,0.000000000,0.000000000,106.562034607,0.000000000,0.000000000,135.581069946,0.000000000,0.000000000
1751971112.974946,1751971112.974893570,0.000000000,-0.011686736,0.000000000,0.000000000,-0.044872613,0.000000000,0.000000000,0.060544360,0.000000000,,,,,,,,,,,,,,,,,,,,,,
1751971112.976960,1751971112.976902723,0.000000000,-0.011686736,0.000000000,0.000000000,-0.044872613,0.000000000,0.000000000,0.060544360,0.000000000,,,,,,,,,,,,,,,,,,,,,,
1751971112.977157,,,,,,,,,,,325.332000000,77.227691650,0.000000000,100.000000000,2.666054487,-29.891996384,-150.000000000,8.978934288,-3.422999382,-100.000000000,60.261737823,0.000000000,0.000000000,166.589706421,0.000000000,0.000000000,106.567062378,0.000000000,0.000000000,135.593841553,0.000000000,0.000000000
1751971112.978961,1751971112.978900433,0.000000000,-0.011729742,0.000000000,0.000000000,-0.044921340,0.000000000,0.000000000,0.058919895,0.000000000,,,,,,,,,,,,,,,,,,,,,,
1751971112.980021,,,,,,,,,,,325.335000000,76.261070251,0.000000000,100.000000000,2.731325388,-29.891996384,-150.000000000,9.136022568,-3.422999382,-100.000000000,60.269931793,0.000000000,0.000000000,166.587860107,0.000000000,0.000000000,106.555107117,0.000000000,0.000000000,135.527297974,0.000000000,0.000000000
1751971112.980970,1751971112.980896950,0.000000000,-0.011729742,0.000000000,0.000000000,-0.044921340,0.000000000,0.000000000,0.058919895,0.000000000,,,,,,,,,,,,,,,,,,,,,,
1751971112.982930,,,,,,,,,,,325.338000000,75.013786316,0.000000000,100.000000000,2.814802408,-29.891996384,-150.000000000,9.330598831,-3.422999382,-100.000000000,60.268695831,0.000000000,0.000000000,166.577331543,0.000000000,0.000000000,106.565017700,0.000000000,0.000000000,135.552261353,0.000000000,0.000000000
1751971112.982967,1751971112.982895613,0.000000000,-0.011729742,0.000000000,0.000000000,-0.044921340,0.000000000,0.000000000,0.058919895,0.000000000,,,,,,,,,,,,,,,,,,,,,,
1751971112.984990,1751971112.984922171,0.000000000,-0.011729742,0.000000000,0.000000000,-0.044921340,0.000000000,0.000000000,0.058919895,0.000000000,,,,,,,,,,,,,,,,,,,,,,
1751971112.985860,,,,,,,,,,,325.340000000,75.013786316,0.000000000,100.000000000,2.814802408,-29.891996384,-150.000000000,9.330598831,-3.422999382,-100.000000000,60.265739441,0.000000000,0.000000000,166.569580078,0.000000000,0.000000000,106.559005737,0.000000000,0.000000000,135.553039551,0.000000000,0.000000000
1751971112.986982,1751971112.986902475,0.000000000,-0.011729742,0.000000000,0.000000000,-0.044921340,0.000000000,0.000000000,0.058919895,0.000000000,,,,,,,,,,,,,,,,,,,,,,
1751971112.988795,,,,,,,,,,,325.343000000,75.013786316,0.000000000,100.000000000,2.814802408,-29.891996384,-150.000000000,9.330598831,-3.422999382,-100.000000000,60.274044037,0.000000000,0.000000000,166.545837402,0.000000000,0.000000000,106.573303223,0.000000000,0.000000000,135.571838379,0.000000000,0.000000000
1751971112.989022,1751971112.988923788,0.000000000,-0.011729742,0.000000000,0.000000000,-0.044921340,0.000000000,0.000000000,0.058919895,0.000000000,,,,,,,,,,,,,,,,,,,,,,
1751971112.990942,1751971112.990877628,0.000000000,-0.011723889,0.000000000,0.000000000,-0.044705486,0.000000000,0.000000000,0.057343780,0.000000000,,,,,,,,,,,,,,,,,,,,,,
1751971112.991682,,,,,,,,,,,325.346000000,75.013786316,0.000000000,100.000000000,2.814802408,-29.891996384,-150.000000000,9.330598831,-3.422999382,-100.000000000,60.274513245,0.000000000,0.000000000,166.551498413,0.000000000,0.000000000,106.574569702,0.000000000,0.000000000,135.515899658,0.000000000,0.000000000
1751971112.992965,1751971112.992895842,0.000000000,-0.011723889,0.000000000,0.000000000,-0.044705486,0.000000000,0.000000000,0.057343780,0.000000000,,,,,,,,,,,,,,,,,,,,,,
1751971112.994609,,,,,,,,,,,325.349000000,75.013786316,0.000000000,100.000000000,2.814802408,-29.891996384,-150.000000000,9.330598831,-3.422999382,-100.000000000,60.276130676,0.000000000,0.000000000,166.557922363,0.000000000,0.000000000,106.570838928,0.000000000,0.000000000,135.582260132,0.000000000,0.000000000
1751971112.995007,1751971112.994932175,0.000000000,-0.011723889,0.000000000,0.000000000,-0.044705486,0.000000000,0.000000000,0.057343780,0.000000000,,,,,,,,,,,,,,,,,,,,,,
1751971112.996959,1751971112.996895075,0.000000000,-0.011723889,0.000000000,0.000000000,-0.044705486,0.000000000,0.000000000,0.057343780,0.000000000,,,,,,,,,,,,,,,,,,,,,,
1751971112.997480,,,,,,,,,,,325.352000000,75.013786316,0.000000000,100.000000000,2.814802408,-29.891996384,-150.000000000,9.330598831,-3.422999382,-100.000000000,60.277713776,0.000000000,0.000000000,166.560424805,0.000000000,0.000000000,106.566040039,0.000000000,0.000000000,135.594924927,0.000000000,0.000000000
1751971112.998963,1751971112.998896837,0.000000000,-0.011723889,0.000000000,0.000000000,-0.044705486,0.000000000,0.000000000,0.057343780,0.000000000,,,,,,,,,,,,,,,,,,,,,,
1751971113.000214,,,,,,,,,,,325.355000000,75.013786316,0.000000000,100.000000000,2.814802408,-29.891996384,-150.000000000,9.330598831,-3.422999382,-100.000000000,60.286041260,0.000000000,0.000000000,166.552642822,0.000000000,0.000000000,106.569595337,0.000000000,0.000000000,135.617950439,0.000000000,0.000000000
1751971113.000954,1751971113.000899315,0.000000000,-0.011723889,0.000000000,0.000000000,-0.044705486,0.000000000,0.000000000,0.057343780,0.000000000,,,,,,,,,,,,,,,,,,,,,,
1751971113.002999,1751971113.002912283,0.000000000,-0.011642740,0.000000000,0.000000000,-0.044477737,0.000000000,0.000000000,0.055652888,0.000000000,,,,,,,,,,,,,,,,,,,,,,
1751971113.003096,,,,,,,,,,,325.358000000,75.013786316,0.000000000,100.000000000,2.814802408,-29.891996384,-150.000000000,9.330598831,-3.422999382,-100.000000000,60.286636353,0.000000000,0.000000000,166.555664063,0.000000000,0.000000000,106.573867798,0.000000000,0.000000000,135.627029419,0.000000000,0.000000000
1751971113.004950,1751971113.004894018,0.000000000,-0.011642740,0.000000000,0.000000000,-0.044477737,0.000000000,0.000000000,0.055652888,0.000000000,,,,,,,,,,,,,,,,,,,,,,
1751971113.005942,,,,,,,,,,,325.361000000,72.187713623,0.000000000,100.000000000,2.954006195,-29.891996384,-150.000000000,9.657954216,-3.422999382,-100.000000000,60.278823853,0.000000000,0.000000000,166.553771973,0.000000000,0.000000000,106.579040527,0.000000000,0.000000000,135.649215698,0.000000000,0.000000000
1751971113.006964,1751971113.006900787,0.000000000,-0.011642740,0.000000000,0.000000000,-0.044477737,0.000000000,0.000000000,0.055652888,0.000000000,,,,,,,,,,,,,,,,,,,,,,
1751971113.008644,,,,,,,,,,,325.363000000,72.187713623,0.000000000,100.000000000,2.954006195,-29.891996384,-150.000000000,9.657954216,-3.422999382,-100.000000000,60.282386780,0.000000000,0.000000000,166.561676025,0.000000000,0.000000000,106.563835144,0.000000000,0.000000000,135.665374756,0.000000000,0.000000000
1751971113.008898,1751971113.008841991,0.000000000,-0.011642740,0.000000000,0.000000000,-0.044477737,0.000000000,0.000000000,0.055652888,0.000000000,,,,,,,,,,,,,,,,,,,,,,
1751971113.010952,1751971113.010894060,0.000000000,-0.011642740,0.000000000,0.000000000,-0.044477737,0.000000000,0.000000000,0.055652888,0.000000000,,,,,,,,,,,,,,,,,,,,,,
1751971113.011537,,,,,,,,,,,325.366000000,72.187713623,0.000000000,100.000000000,2.954006195,-29.891996384,-150.000000000,9.657954216,-3.422999382,-100.000000000,60.285678864,0.000000000,0.000000000,166.568969727,0.000000000,0.000000000,106.565933228,0.000000000,0.000000000,135.634063721,0.000000000,0.000000000
1751971113.012950,1751971113.012892485,0.000000000,-0.011642740,0.000000000,0.000000000,-0.044477737,0.000000000,0.000000000,0.055652888,0.000000000,,,,,,,,,,,,,,,,,,,,,,
1751971113.014413,,,,,,,,,,,325.369000000,72.187713623,0.000000000,100.000000000,2.954006195,-29.891996384,-150.000000000,9.657954216,-3.422999382,-100.000000000,60.282142639,0.000000000,0.000000000,166.569427490,0.000000000,0.000000000,106.560058594,0.000000000,0.000000000,135.677276611,0.000000000,0.000000000
1751971113.014965,1751971113.014902592,0.000000000,-0.011468514,0.000000000,0.000000000,-0.044031616,0.000000000,0.000000000,0.053985624,0.000000000,,,,,,,,,,,,,,,,,,,,,,
1751971113.016971,1751971113.016913891,0.000000000,-0.011468514,0.000000000,0.000000000,-0.044031616,0.000000000,0.000000000,0.053985624,0.000000000,,,,,,,,,,,,,,,,,,,,,,
1751971113.017181,,,,,,,,,,,325.372000000,72.187713623,0.000000000,100.000000000,2.954006195,-29.891996384,-150.000000000,9.657954216,-3.422999382,-100.000000000,60.283119202,0.000000000,0.000000000,166.570770264,0.000000000,0.000000000,106.556350708,0.000000000,0.000000000,135.628997803,0.000000000,0.000000000
1751971113.018943,1751971113.018894196,0.000000000,-0.011468514,0.000000000,0.000000000,-0.044031616,0.000000000,0.000000000,0.053985624,0.000000000,,,,,,,,,,,,,,,,,,,,,,
1751971113.020052,,,,,,,,,,,325.375000000,70.602813721,0.000000000,100.000000000,2.998353720,-29.891996384,-150.000000000,9.800321579,-3.422999382,-100.000000000,60.285522461,0.000000000,0.000000000,166.574050903,0.000000000,0.000000000,106.563461304,0.000000000,0.000000000,135.608978271,0.000000000,0.000000000
1751971113.020949,1751971113.020892859,0.000000000,-0.011468514,0.000000000,0.000000000,-0.044031616,0.000000000,0.000000000,0.053985624,0.000000000,,,,,,,,,,,,,,,,,,,,,,
1751971113.022722,,,,,,,,,,,325.377000000,70.602813721,0.000000000,100.000000000,2.998353720,-29.891996384,-150.000000000,9.800321579,-3.422999382,-100.000000000,60.287742615,0.000000000,0.000000000,166.577087402,0.000000000,0.000000000,106.557571411,0.000000000,0.000000000,135.564193726,0.000000000,0.000000000
1751971113.022964,1751971113.022900343,0.000000000,-0.011468514,0.000000000,0.000000000,-0.044031616,0.000000000,0.000000000,0.053985624,0.000000000,,,,,,,,,,,,,,,,,,,,,,
1751971113.024977,1751971113.024896383,0.000000000,-0.011417436,0.000000000,0.000000000,-0.043602536,0.000000000,0.000000000,0.052682713,0.000000000,,,,,,,,,,,,,,,,,,,,,,
1751971113.025629,,,,,,,,,,,325.380000000,70.602813721,0.000000000,100.000000000,2.998353720,-29.891996384,-150.000000000,9.800321579,-3.422999382,-100.000000000,60.288887024,0.000000000,0.000000000,166.578674316,0.000000000,0.000000000,106.548187256,0.000000000,0.000000000,135.603424072,0.000000000,0.000000000
1751971113.026940,1751971113.026869297,0.000000000,-0.011417436,0.000000000,0.000000000,-0.043602536,0.000000000,0.000000000,0.052682713,0.000000000,,,,,,,,,,,,,,,,,,,,,,
1751971113.028535,,,,,,,,,,,325.383000000,70.602813721,0.000000000,100.000000000,2.998353720,-29.891996384,-150.000000000,9.800321579,-3.422999382,-100.000000000,60.293697357,0.000000000,0.000000000,166.584075928,0.000000000,0.000000000,106.533439636,0.000000000,0.000000000,135.658432007,0.000000000,0.000000000
1751971113.029041,1751971113.028953791,0.000000000,-0.011417436,0.000000000,0.000000000,-0.043602536,0.000000000,0.000000000,0.052682713,0.000000000,,,,,,,,,,,,,,,,,,,,,,
1751971113.030987,1751971113.030919790,0.000000000,-0.011417436,0.000000000,0.000000000,-0.043602536,0.000000000,0.000000000,0.052682713,0.000000000,,,,,,,,,,,,,,,,,,,,,,
1751971113.031307,,,,,,,,,,,325.386000000,70.602813721,0.000000000,100.000000000,2.998353720,-29.891996384,-150.000000000,9.800321579,-3.422999382,-100.000000000,60.293518066,0.000000000,0.000000000,166.583953857,0.000000000,0.000000000,106.541328430,0.000000000,0.000000000,135.612045288,0.000000000,0.000000000
1751971113.032953,1751971113.032897949,0.000000000,-0.011417436,0.000000000,0.000000000,-0.043602536,0.000000000,0.000000000,0.052682713,0.000000000,,,,,,,,,,,,,,,,,,,,,,
1751971113.034272,,,,,,,,,,,325.389000000,70.602813721,0.000000000,100.000000000,2.998353720,-29.891996384,-150.000000000,9.800321579,-3.422999382,-100.000000000,60.275260925,0.000000000,0.000000000,166.582122803,0.000000000,0.000000000,106.576568604,0.000000000,0.000000000,135.503799438,0.000000000,0.000000000
1751971113.034964,1751971113.034897804,0.000000000,-0.011417436,0.000000000,0.000000000,-0.043602536,0.000000000,0.000000000,0.052682713,0.000000000,,,,,,,,,,,,,,,,,,,,,,
1751971113.036969,1751971113.036897182,0.000000000,-0.011153661,0.000000000,0.000000000,-0.042864019,0.000000000,0.000000000,0.051021189,0.000000000,,,,,,,,,,,,,,,,,,,,,,
1751971113.037064,,,,,,,,,,,325.392000000,70.602813721,0.000000000,100.000000000,2.998353720,-29.891996384,-150.000000000,9.800321579,-3.422999382,-100.000000000,60.276931763,0.000000000,0.000000000,166.582214355,0.000000000,0.000000000,106.562263489,0.000000000,0.000000000,135.524307251,0.000000000,0.000000000
1751971113.038951,1751971113.038893938,0.000000000,-0.011153661,0.000000000,0.000000000,-0.042864019,0.000000000,0.000000000,0.051021189,0.000000000,,,,,,,,,,,,,,,,,,,,,,
1751971113.039981,,,,,,,,,,,325.395000000,67.563972473,0.000000000,100.000000000,3.082836390,-29.891996384,-150.000000000,10.008588791,-3.422999382,-100.000000000,60.279788971,0.000000000,0.000000000,166.582336426,0.000000000,0.000000000,106.554794312,0.000000000,0.000000000,135.559387207,0.000000000,0.000000000
1751971113.040962,1751971113.040899038,0.000000000,-0.011153661,0.000000000,0.000000000,-0.042864019,0.000000000,0.000000000,0.051021189,0.000000000,,,,,,,,,,,,,,,,,,,,,,
1751971113.042763,,,,,,,,,,,325.397000000,67.563972473,0.000000000,100.000000000,3.082836390,-29.891996384,-150.000000000,10.008588791,-3.422999382,-100.000000000,60.274188995,0.000000000,0.000000000,166.572723389,0.000000000,0.000000000,106.557212830,0.000000000,0.000000000,135.569122314,0.000000000,0.000000000
1751971113.042966,1751971113.042913675,0.000000000,-0.011153661,0.000000000,0.000000000,-0.042864019,0.000000000,0.000000000,0.051021189,0.000000000,,,,,,,,,,,,,,,,,,,,,,
1751971113.044936,1751971113.044868946,0.000000000,-0.011153661,0.000000000,0.000000000,-0.042864019,0.000000000,0.000000000,0.051021189,0.000000000,,,,,,,,,,,,,,,,,,,,,,
1751971113.045605,,,,,,,,,,,325.400000000,67.563972473,0.000000000,100.000000000,3.082836390,-29.891996384,-150.000000000,10.008588791,-3.422999382,-100.000000000,60.286533356,0.000000000,0.000000000,166.560241699,0.000000000,0.000000000,106.573867798,0.000000000,0.000000000,135.538055420,0.000000000,0.000000000
1751971113.046952,1751971113.046895504,0.000000000,-0.011153661,0.000000000,0.000000000,-0.042864019,0.000000000,0.000000000,0.051021189,0.000000000,,,,,,,,,,,,,,,,,,,,,,
1751971113.048418,,,,,,,,,,,325.403000000,67.563972473,0.000000000,100.000000000,3.082836390,-29.891996384,-150.000000000,10.008588791,-3.422999382,-100.000000000,60.281425476,0.000000000,0.000000000,166.564132690,0.000000000,0.000000000,106.577743530,0.000000000,0.000000000,135.474426270,0.000000000,0.000000000
1751971113.048962,1751971113.048901796,0.000000000,-0.010965257,0.000000000,0.000000000,-0.041850798,0.000000000,0.000000000,0.049468360,0.000000000,,,,,,,,,,,,,,,,,,,,,,
1751971113.050951,1751971113.050893784,0.000000000,-0.010965257,0.000000000,0.000000000,-0.041850798,0.000000000,0.000000000,0.049468360,0.000000000,,,,,,,,,,,,,,,,,,,,,,
1751971113.051224,,,,,,,,,,,325.406000000,67.563972473,0.000000000,100.000000000,3.082836390,-29.891996384,-150.000000000,10.008588791,-3.422999382,-100.000000000,60.279411316,0.000000000,0.000000000,166.564346313,0.000000000,0.000000000,106.569534302,0.000000000,0.000000000,135.537963867,0.000000000,0.000000000
1751971113.052952,1751971113.052899122,0.000000000,-0.010965257,0.000000000,0.000000000,-0.041850798,0.000000000,0.000000000,0.049468360,0.000000000,,,,,,,,,,,,,,,,,,,,,,
1751971113.054067,,,,,,,,,,,325.409000000,65.717918396,0.000000000,100.000000000,3.124554396,-29.891996384,-150.000000000,10.057900429,-3.422999382,-100.000000000,60.260181427,0.000000000,0.000000000,166.577606201,0.000000000,0.000000000,106.573814392,0.000000000,0.000000000,135.550460815,0.000000000,0.000000000
1751971113.054948,1751971113.054897547,0.000000000,-0.010965257,0.000000000,0.000000000,-0.041850798,0.000000000,0.000000000,0.049468360,0.000000000,,,,,,,,,,,,,,,,,,,,,,
1751971113.056910,,,,,,,,,,,325.412000000,65.717918396,0.000000000,100.000000000,3.124554396,-29.891996384,-150.000000000,10.057900429,-3.422999382,-100.000000000,60.263362885,0.000000000,0.000000000,166.578140259,0.000000000,0.000000000,106.568725586,0.000000000,0.000000000,135.566314697,0.000000000,0.000000000
1751971113.056949,1751971113.056887865,0.000000000,-0.010965257,0.000000000,0.000000000,-0.041850798,0.000000000,0.000000000,0.049468360,0.000000000,,,,,,,,,,,,,,,,,,,,,,
1751971113.058956,1751971113.058897734,0.000000000,-0.010965257,0.000000000,0.000000000,-0.041850798,0.000000000,0.000000000,0.049468360,0.000000000,,,,,,,,,,,,,,,,,,,,,,
1751971113.059755,,,,,,,,,,,325.414000000,65.717918396,0.000000000,100.000000000,3.124554396,-29.891996384,-150.000000000,10.057900429,-3.422999382,-100.000000000,60.268806458,0.000000000,0.000000000,166.579040527,0.000000000,0.000000000,106.560028076,0.000000000,0.000000000,135.593399048,0.000000000,0.000000000
1751971113.060927,1751971113.060855150,0.000000000,-0.010649178,0.000000000,0.000000000,-0.040785733,0.000000000,0.000000000,0.048065274,0.000000000,,,,,,,,,,,,,,,,,,,,,,
1751971113.062588,,,,,,,,,,,325.417000000,65.717918396,0.000000000,100.000000000,3.124554396,-29.891996384,-150.000000000,10.057900429,-3.422999382,-100.000000000,60.273918152,0.000000000,0.000000000,166.573165894,0.000000000,0.000000000,106.568992615,0.000000000,0.000000000,135.587158203,0.000000000,0.000000000
1751971113.063005,1751971113.062936306,0.000000000,-0.010649178,0.000000000,0.000000000,-0.040785733,0.000000000,0.000000000,0.048065274,0.000000000,,,,,,,,,,,,,,,,,,,,,,
1751971113.064991,1751971113.064899206,0.000000000,-0.010649178,0.000000000,0.000000000,-0.040785733,0.000000000,0.000000000,0.048065274,0.000000000,,,,,,,,,,,,,,,,,,,,,,
1751971113.065425,,,,,,,,,,,325.420000000,65.717918396,0.000000000,100.000000000,3.124554396,-29.891996384,-150.000000000,10.057900429,-3.422999382,-100.000000000,60.278808594,0.000000000,0.000000000,166.575805664,0.000000000,0.000000000,106.563743591,0.000000000,0.000000000,135.568725586,0.000000000,0.000000000
1751971113.066964,1751971113.066897154,0.000000000,-0.010649178,0.000000000,0.000000000,-0.040785733,0.000000000,0.000000000,0.048065274,0.000000000,,,,,,,,,,,,,,,,,,,,,,
1751971113.068277,,,,,,,,,,,325.423000000,65.717918396,0.000000000,100.000000000,3.124554396,-29.891996384,-150.000000000,10.057900429,-3.422999382,-100.000000000,60.279392242,0.000000000,0.000000000,166.574295044,0.000000000,0.000000000,106.555099487,0.000000000,0.000000000,135.663192749,0.000000000,0.000000000
1751971113.068939,1751971113.068875074,0.000000000,-0.010649178,0.000000000,0.000000000,-0.040785733,0.000000000,0.000000000,0.048065274,0.000000000,,,,,,,,,,,,,,,,,,,,,,
1751971113.070976,1751971113.070914745,0.000000000,-0.010649178,0.000000000,0.000000000,-0.040785733,0.000000000,0.000000000,0.048065274,0.000000000,,,,,,,,,,,,,,,,,,,,,,
1751971113.071031,,,,,,,,,,,325.426000000,65.717918396,0.000000000,100.000000000,3.124554396,-29.891996384,-150.000000000,10.057900429,-3.422999382,-100.000000000,60.280647278,0.000000000,0.000000000,166.575164795,0.000000000,0.000000000,106.560813904,0.000000000,0.000000000,135.616333008,0.000000000,0.000000000
1751971113.072991,1751971113.072896481,0.000000000,-0.010163201,0.000000000,0.000000000,-0.039564678,0.000000000,0.000000000,0.046783877,0.000000000,,,,,,,,,,,,,,,,,,,,,,
1751971113.074011,,,,,,,,,,,325.429000000,63.930835724,0.000000000,100.000000000,3.123114824,-29.891996384,-150.000000000,10.079057693,-3.422999382,-100.000000000,60.282791138,0.000000000,0.000000000,166.576644897,0.000000000,0.000000000,106.553619385,0.000000000,0.000000000,135.633911133,0.000000000,0.000000000
1751971113.074957,1751971113.074896574,0.000000000,-0.010163201,0.000000000,0.000000000,-0.039564678,0.000000000,0.000000000,0.046783877,0.000000000,,,,,,,,,,,,,,,,,,,,,,
1751971113.076837,,,,,,,,,,,325.431000000,62.107852936,0.000000000,100.000000000,3.064086437,-29.891996384,-150.000000000,10.055220604,-3.422999382,-100.000000000,60.280529022,0.000000000,0.000000000,166.573379517,0.000000000,0.000000000,106.556968689,0.000000000,0.000000000,135.608276367,0.000000000,0.000000000
1751971113.076979,1751971113.076929331,0.000000000,-0.010163201,0.000000000,0.000000000,-0.039564678,0.000000000,0.000000000,0.046783877,0.000000000,,,,,,,,,,,,,,,,,,,,,,
1751971113.078968,1751971113.078912735,0.000000000,-0.010163201,0.000000000,0.000000000,-0.039564678,0.000000000,0.000000000,0.046783877,0.000000000,,,,,,,,,,,,,,,,,,,,,,
1751971113.079718,,,,,,,,,,,325.434000000,62.107852936,0.000000000,100.000000000,3.064086437,-29.891996384,-150.000000000,10.055220604,-3.422999382,-100.000000000,60.301383972,0.000000000,0.000000000,166.538604736,0.000000000,0.000000000,106.570060730,0.000000000,0.000000000,135.589263916,0.000000000,0.000000000
1751971113.080947,1751971113.080897093,0.000000000,-0.010163201,0.000000000,0.000000000,-0.039564678,0.000000000,0.000000000,0.046783877,0.000000000,,,,,,,,,,,,,,,,,,,,,,
1751971113.082558,,,,,,,,,,,325.437000000,62.107852936,0.000000000,100.000000000,3.064086437,-29.891996384,-150.000000000,10.055220604,-3.422999382,-100.000000000,60.277435303,0.000000000,0.000000000,166.563201904,0.000000000,0.000000000,106.562850952,0.000000000,0.000000000,135.432373047,0.000000000,0.000000000
1751971113.082953,1751971113.082900047,0.000000000,-0.010163201,0.000000000,0.000000000,-0.039564678,0.000000000,0.000000000,0.046783877,0.000000000,,,,,,,,,,,,,,,,,,,,,,
1751971113.084919,1751971113.084850311,0.000000000,-0.009734776,0.000000000,0.000000000,-0.038203231,0.000000000,0.000000000,0.045494540,0.000000000,,,,,,,,,,,,,,,,,,,,,,
1751971113.085442,,,,,,,,,,,325.440000000,62.107852936,0.000000000,100.000000000,3.064086437,-29.891996384,-150.000000000,10.055220604,-3.422999382,-100.000000000,60.276496887,0.000000000,0.000000000,166.563659668,0.000000000,0.000000000,106.565925598,0.000000000,0.000000000,135.455871582,0.000000000,0.000000000
1751971113.086956,1751971113.086894035,0.000000000,-0.009734776,0.000000000,0.000000000,-0.038203231,0.000000000,0.000000000,0.045494540,0.000000000,,,,,,,,,,,,,,,,,,,,,,
1751971113.088399,,,,,,,,,,,325.443000000,62.107852936,0.000000000,100.000000000,3.064086437,-29.891996384,-150.000000000,10.055220604,-3.422999382,-100.000000000,60.309394836,0.000000000,0.000000000,166.542694092,0.000000000,0.000000000,106.560073853,0.000000000,0.000000000,135.496597290,0.000000000,0.000000000
1751971113.088944,1751971113.088879585,0.000000000,-0.009734776,0.000000000,0.000000000,-0.038203231,0.000000000,0.000000000,0.045494540,0.000000000,,,,,,,,,,,,,,,,,,,,,,
1751971113.091044,1751971113.090933800,0.000000000,-0.009734776,0.000000000,0.000000000,-0.038203231,0.000000000,0.000000000,0.045494540,0.000000000,,,,,,,,,,,,,,,,,,,,,,
1751971113.091389,,,,,,,,,,,325.446000000,62.107852936,0.000000000,100.000000000,3.064086437,-29.891996384,-150.000000000,10.055220604,-3.422999382,-100.000000000,60.302242279,0.000000000,0.000000000,166.541305542,0.000000000,0.000000000,106.572685242,0.000000000,0.000000000,135.517822266,0.000000000,0.000000000
1751971113.093035,1751971113.092956305,0.000000000,-0.009734776,0.000000000,0.000000000,-0.038203231,0.000000000,0.000000000,0.045494540,0.000000000,,,,,,,,,,,,,,,,,,,,,,
1751971113.094179,,,,,,,,,,,325.449000000,62.107852936,0.000000000,100.000000000,3.064086437,-29.891996384,-150.000000000,10.055220604,-3.422999382,-100.000000000,60.300292969,0.000000000,0.000000000,166.549209595,0.000000000,0.000000000,106.580200195,0.000000000,0.000000000,135.502700806,0.000000000,0.000000000
1751971113.094972,1751971113.094900370,0.000000000,-0.009250080,0.000000000,0.000000000,-0.037015277,0.000000000,0.000000000,0.044618681,0.000000000,,,,,,,,,,,,,,,,,,,,,,
1751971113.096981,,,,,,,,,,,325.452000000,62.107852936,0.000000000,100.000000000,3.064086437,-29.891996384,-150.000000000,10.055220604,-3.422999382,-100.000000000,60.297435760,0.000000000,0.000000000,166.560791016,0.000000000,0.000000000,106.575057983,0.000000000,0.000000000,135.489837646,0.000000000,0.000000000
1751971113.097012,1751971113.096954584,0.000000000,-0.009250080,0.000000000,0.000000000,-0.037015277,0.000000000,0.000000000,0.044618681,0.000000000,,,,,,,,,,,,,,,,,,,,,,
1751971113.098978,1751971113.098912239,0.000000000,-0.009250080,0.000000000,0.000000000,-0.037015277,0.000000000,0.000000000,0.044618681,0.000000000,,,,,,,,,,,,,,,,,,,,,,
1751971113.099787,,,,,,,,,,,325.454000000,62.107852936,0.000000000,100.000000000,3.064086437,-29.891996384,-150.000000000,10.055220604,-3.422999382,-100.000000000,60.295558929,0.000000000,0.000000000,166.568389893,0.000000000,0.000000000,106.563644409,0.000000000,0.000000000,135.467453003,0.000000000,0.000000000
1751971113.100984,1751971113.100914717,0.000000000,-0.009250080,0.000000000,0.000000000,-0.037015277,0.000000000,0.000000000,0.044618681,0.000000000,,,,,,,,,,,,,,,,,,,,,,
1751971113.102668,,,,,,,,,,,325.457000000,62.107852936,0.000000000,100.000000000,3.064086437,-29.891996384,-150.000000000,10.055220604,-3.422999382,-100.000000000,60.294044495,0.000000000,0.000000000,166.571777344,0.000000000,0.000000000,106.560600281,0.000000000,0.000000000,135.491210938,0.000000000,0.000000000
1751971113.103047,1751971113.102931023,0.000000000,-0.009250080,0.000000000,0.000000000,-0.037015277,0.000000000,0.000000000,0.044618681,0.000000000,,,,,,,,,,,,,,,,,,,,,,
1751971113.105003,1751971113.104913712,0.000000000,-0.009250080,0.000000000,0.000000000,-0.037015277,0.000000000,0.000000000,0.044618681,0.000000000,,,,,,,,,,,,,,,,,,,,,,
1751971113.105549,,,,,,,,,,,325.460000000,62.107852936,0.000000000,100.000000000,3.064086437,-29.891996384,-150.000000000,10.055220604,-3.422999382,-100.000000000,60.288459778,0.000000000,0.000000000,166.570739746,0.000000000,0.000000000,106.554290771,0.000000000,0.000000000,135.524398804,0.000000000,0.000000000
1751971113.106981,1751971113.106914759,0.000000000,-0.008889786,0.000000000,0.000000000,-0.035513285,0.000000000,0.000000000,0.043469689,0.000000000,,,,,,,,,,,,,,,,,,,,,,
1751971113.108366,,,,,,,,,,,325.463000000,62.107852936,0.000000000,100.000000000,3.064086437,-29.891996384,-150.000000000,10.055220604,-3.422999382,-100.000000000,60.284530640,0.000000000,0.000000000,166.569168091,0.000000000,0.000000000,106.552444458,0.000000000,0.000000000,135.486465454,0.000000000,0.000000000
1751971113.108979,1751971113.108902454,0.000000000,-0.008889786,0.000000000,0.000000000,-0.035513285,0.000000000,0.000000000,0.043469689,0.000000000,,,,,,,,,,,,,,,,,,,,,,
1751971113.111035,1751971113.110932827,0.000000000,-0.008889786,0.000000000,0.000000000,-0.035513285,0.000000000,0.000000000,0.043469689,0.000000000,,,,,,,,,,,,,,,,,,,,,,
1751971113.111192,,,,,,,,,,,325.466000000,62.107852936,0.000000000,100.000000000,3.064086437,-29.891996384,-150.000000000,10.055220604,-3.422999382,-100.000000000,60.277729034,0.000000000,0.000000000,166.564514160,0.000000000,0.000000000,106.562316895,0.000000000,0.000000000,135.530593872,0.000000000,0.000000000
1751971113.112983,1751971113.112899542,0.000000000,-0.008889786,0.000000000,0.000000000,-0.035513285,0.000000000,0.000000000,0.043469689,0.000000000,,,,,,,,,,,,,,,,,,,,,,
1751971113.114025,,,,,,,,,,,325.469000000,56.831642151,0.000000000,100.000000000,2.889482021,-29.891996384,-150.000000000,9.811919212,-3.422999382,-100.000000000,60.277206421,0.000000000,0.000000000,166.565109253,0.000000000,0.000000000,106.565666199,0.000000000,0.000000000,135.537261963,0.000000000,0.000000000
1751971113.114969,1751971113.114897966,0.000000000,-0.008889786,0.000000000,0.000000000,-0.035513285,0.000000000,0.000000000,0.043469689,0.000000000,,,,,,,,,,,,,,,,,,,,,,
1751971113.116812,,,,,,,,,,,325.471000000,56.831642151,0.000000000,100.000000000,2.889482021,-29.891996384,-150.000000000,9.811919212,-3.422999382,-100.000000000,60.266315460,0.000000000,0.000000000,166.577453613,0.000000000,0.000000000,106.572906494,0.000000000,0.000000000,135.558792114,0.000000000,0.000000000
1751971113.116988,1751971113.116918087,0.000000000,-0.008889786,0.000000000,0.000000000,-0.035513285,0.000000000,0.000000000,0.043469689,0.000000000,,,,,,,,,,,,,,,,,,,,,,
1751971113.118960,1751971113.118898869,0.000000000,-0.008311775,0.000000000,0.000000000,-0.033846326,0.000000000,0.000000000,0.042529674,0.000000000,,,,,,,,,,,,,,,,,,,,,,
1751971113.119704,,,,,,,,,,,325.474000000,56.831642151,0.000000000,100.000000000,2.889482021,-29.891996384,-150.000000000,9.811919212,-3.422999382,-100.000000000,60.273273468,0.000000000,0.000000000,166.578918457,0.000000000,0.000000000,106.567413330,0.000000000,0.000000000,135.553192139,0.000000000,0.000000000
1751971113.120990,1751971113.120918751,0.000000000,-0.008311775,0.000000000,0.000000000,-0.033846326,0.000000000,0.000000000,0.042529674,0.000000000,,,,,,,,,,,,,,,,,,,,,,
1751971113.122499,,,,,,,,,,,325.477000000,56.831642151,0.000000000,100.000000000,2.889482021,-29.891996384,-150.000000000,9.811919212,-3.422999382,-100.000000000,60.267833710,0.000000000,0.000000000,166.590438843,0.000000000,0.000000000,106.552886963,0.000000000,0.000000000,135.588134766,0.000000000,0.000000000
1751971113.122982,1751971113.122900009,0.000000000,-0.008311775,0.000000000,0.000000000,-0.033846326,0.000000000,0.000000000,0.042529674,0.000000000,,,,,,,,,,,,,,,,,,,,,,
1751971113.124995,1751971113.124922752,0.000000000,-0.008311775,0.000000000,0.000000000,-0.033846326,0.000000000,0.000000000,0.042529674,0.000000000,,,,,,,,,,,,,,,,,,,,,,
1751971113.125421,,,,,,,,,,,325.480000000,56.831642151,0.000000000,100.000000000,2.889482021,-29.891996384,-150.000000000,9.811919212,-3.422999382,-100.000000000,60.270248413,0.000000000,0.000000000,166.589675903,0.000000000,0.000000000,106.558830261,0.000000000,0.000000000,135.600204468,0.000000000,0.000000000
1751971113.127012,1751971113.126883984,0.000000000,-0.008311775,0.000000000,0.000000000,-0.033846326,0.000000000,0.000000000,0.042529674,0.000000000,,,,,,,,,,,,,,,,,,,,,,
1751971113.128267,,,,,,,,,,,325.483000000,56.831642151,0.000000000,100.000000000,2.889482021,-29.891996384,-150.000000000,9.811919212,-3.422999382,-100.000000000,60.264415741,0.000000000,0.000000000,166.570495605,0.000000000,0.000000000,106.563858032,0.000000000,0.000000000,135.532836914,0.000000000,0.000000000
1751971113.128979,1751971113.128899097,0.000000000,-0.008311775,0.000000000,0.000000000,-0.033846326,0.000000000,0.000000000,0.042529674,0.000000000,,,,,,,,,,,,,,,,,,,,,,
1751971113.130965,1751971113.130874872,0.000000000,-0.007670758,0.000000000,0.000000000,-0.032014995,0.000000000,0.000000000,0.041716602,0.000000000,,,,,,,,,,,,,,,,,,,,,,
1751971113.131067,,,,,,,,,,,325.486000000,56.831642151,0.000000000,100.000000000,2.889482021,-29.891996384,-150.000000000,9.811919212,-3.422999382,-100.000000000,60.282405853,0.000000000,0.000000000,166.556503296,0.000000000,0.000000000,106.568702698,0.000000000,0.000000000,135.550445557,0.000000000,0.000000000
1751971113.132969,1751971113.132912159,0.000000000,-0.007670758,0.000000000,0.000000000,-0.032014995,0.000000000,0.000000000,0.041716602,0.000000000,,,,,,,,,,,,,,,,,,,,,,
1751971113.133923,,,,,,,,,,,325.489000000,56.831642151,0.000000000,100.000000000,2.889482021,-29.891996384,-150.000000000,9.811919212,-3.422999382,-100.000000000,60.280612946,0.000000000,0.000000000,166.559265137,0.000000000,0.000000000,106.571220398,0.000000000,0.000000000,135.547088623,0.000000000,0.000000000
1751971113.134902,1751971113.134848356,0.000000000,-0.007670758,0.000000000,0.000000000,-0.032014995,0.000000000,0.000000000,0.041716602,0.000000000,,,,,,,,,,,,,,,,,,,,,,
1751971113.136783,,,,,,,,,,,325.491000000,56.831642151,0.000000000,100.000000000,2.889482021,-29.891996384,-150.000000000,9.811919212,-3.422999382,-100.000000000,60.278823853,0.000000000,0.000000000,166.560806274,0.000000000,0.000000000,106.572006226,0.000000000,0.000000000,135.503021240,0.000000000,0.000000000
1751971113.136971,1751971113.136909485,0.000000000,-0.007670758,0.000000000,0.000000000,-0.032014995,0.000000000,0.000000000,0.041716602,0.000000000,,,,,,,,,,,,,,,,,,,,,,
1751971113.138952,1751971113.138895273,0.000000000,-0.007670758,0.000000000,0.000000000,-0.032014995,0.000000000,0.000000000,0.041716602,0.000000000,,,,,,,,,,,,,,,,,,,,,,
1751971113.139721,,,,,,,,,,,325.494000000,53.142028809,0.000000000,100.000000000,2.604759216,-29.891996384,-150.000000000,9.376020432,-3.422999382,-100.000000000,60.283348083,0.000000000,0.000000000,166.568389893,0.000000000,0.000000000,106.562377930,0.000000000,0.000000000,135.392807007,0.000000000,0.000000000
1751971113.140971,1751971113.140909910,0.000000000,-0.007670758,0.000000000,0.000000000,-0.032014995,0.000000000,0.000000000,0.041716602,0.000000000,,,,,,,,,,,,,,,,,,,,,,
